!!!!SEGMENT: pl-cz--iii-685--011_volckmer-augustin--missa-ex-b-tantum-ergo-sacramentum.krn
!!!cenid: 17xx:1197
!!!COM: Volckmer, Augustin
!!!COM-rismid: pe30020656
!!!CDT: 1755-~1820
!!!CNT:
!!!OPR: Missa ex B
!!!OTL: Tantum ergo sacramentum
!!!OMV: 011
!!!PDT:
!!!AGN: Sacred; Mass
!!!SMS-siglum: PL-CZ
!!!SMS-shelfmark: III-685
!!!SMS-shelfwork: 001-011 M
!!!SMS-variant:
!!!SMS-altvar:
!!!NIFC-rismid: 300001397
!!!URL-scan: http://repozytorium.nifc.pl/skany/pl-cz-nut--iii-685
!!!ONB-nifc: UWAGA: części Mszy: Kyrie, Gloria, Graduale (instrumentalne), Credo, Eia chori jubilemus, Sanctus, Pleni, Benedictus, Agnus Dei, Dona nobis, Tantum ergo sacramentum
!!!AIN: 1 alto 1 bass 2 clars 2 cor 1 fagot 1 organ 1 soprn 1 tenor 1 viola 2 violn
!!!key: B-
**kern	**fba	**dynam	**kern	**dynam	**kern	**dynam	**kern	**dynam	**kern	**text	**text	**kern	**text	**text	**kern	**text	**text	**kern	**text	**text	**dynam	**kern	**dynam	**kern	**dynam	**kern	**dynam	**kern	**dynam
*part12	*part12	*part12	*part11	*part11	*part10	*part10	*part9	*part9	*part8	*part8	*part8	*part7	*part7	*part7	*part6	*part6	*part6	*part5	*part5	*part5	*part5	*part4	*part4	*part3	*part3	*part2	*part2	*part1	*part1
*staff12	*	*	*staff11	*	*staff10	*	*staff9	*	*staff8	*staff8	*staff8	*staff7	*staff7	*staff7	*staff6	*staff6	*staff6	*staff5	*staff5	*staff5	*	*staff4	*	*staff3	*	*staff2	*	*staff1	*
*I"Organo. et Fagotti.	*	*	*I"Viola. obl.	*	*I"Violino Secundo.	*	*I"Violino Primo.	*	*I"Baſso.	*	*	*I"Tenore	*	*	*I"Alto	*	*	*I"Canto	*	*	*	*I"Corno. Secundo in B Baſson	*	*I"Corno Primo. in B Baſson.	*	*I"Clarinetto Secundo.	*	*I"Clarinetto Primo.	*
*I'org	*	*	*I'vla obl	*	*I'vl II	*	*I'vl I	*	*I'B	*	*	*I'T	*	*	*I'A	*	*	*I'S	*	*	*	*I'cor II	*	*I'cor I	*	*I'cl II	*	*I'cl I	*
*ICklav	*	*	*ICstr	*	*ICstr	*	*ICstr	*	*ICvox	*	*	*ICvox	*	*	*ICvox	*	*	*ICvox	*	*	*	*ICbras	*	*ICbras	*	*ICww	*	*ICww	*
*Iorgan&Ifagot	*	*	*Iviola	*	*Ivioln	*	*Ivioln	*	*Ibass	*	*	*Itenor	*	*	*Ialto	*	*	*Isoprn	*	*	*	*Icor	*	*Icor	*	*Iclars	*	*Iclars	*
*clefF4	*	*	*clefC3	*	*clefG2	*	*clefG2	*	*clefF4	*	*	*clefC4	*	*	*clefC3	*	*	*clefC1	*	*	*	*clefG2	*	*clefG2	*	*clefG2	*	*clefG2	*
*	*	*	*	*	*	*	*	*	*	*	*	*	*	*	*	*	*	*	*	*	*	*ITrd1c2	*	*ITrd1c2	*	*ITrd1c2	*	*ITrd1c2	*
*k[b-e-]	*	*	*k[b-e-]	*	*k[b-e-]	*	*k[b-e-]	*	*k[b-e-]	*	*	*k[b-e-]	*	*	*k[b-e-]	*	*	*k[b-e-]	*	*	*	*k[b-e-]	*	*k[b-e-]	*	*k[b-e-]	*	*k[b-e-]	*
*B-:	*	*	*B-:	*	*B-:	*	*B-:	*	*B-:	*	*	*B-:	*	*	*B-:	*	*	*B-:	*	*	*	*B-:	*	*B-:	*	*B-:	*	*B-:	*
*M2/4	*	*	*M2/4	*	*M2/4	*	*M2/4	*	*M2/4	*	*	*M2/4	*	*	*M2/4	*	*	*M2/4	*	*	*	*M2/4	*	*M2/4	*	*M2/4	*	*M2/4	*
=1	=1	=1	=1	=1	=1	=1	=1	=1	=1	=1	=1	=1	=1	=1	=1	=1	=1	=1	=1	=1	=1	=1	=1	=1	=1	=1	=1	=1	=1
!!LO:TX:t=P:problem: all\right or middle	!	!	!	!	!	!	!	!	!	!	!	!	!	!	!	!	!	!	!	!	!	!	!	!	!	!	!	!
!	!	!	!	!	!	!	!	!	!LO:TX:a:B:t=Andante	!	!	!LO:TX:a:B:t=Andante	!	!	!LO:TX:a:B:t=Andante	!	!	!LO:TX:a:B:t=Andante.	!	!	!	!	!	!	!	!LO:TX:a:B:t=Andante	!	!LO:TX:a:t=3	!
!LO:TX:a:B:t=Andante	!	!	!LO:TX:a:B:t=Andante	!	!LO:TX:a:B:t=Andante	!	!LO:TX:a:B:t=Andante	!	!LO:TX:a:t=16	!	!	!LO:TX:a:t=16	!	!	!LO:TX:a:t=10	!	!	!LO:TX:a:t=8	!	!	!	!LO:TX:a:B:t=Andante	!	!LO:TX:a:B:t=Andante	!	!LO:TX:a:t=3	!	!LO:TX:a:B:t=Andante	!
!	!	!	!	!LO:DY:b:t=poco forto	!	!LO:DY:b:t=poco forto	!	!	!	!	!	!	!	!	!	!	!	!	!	!	!	!	!	!	!	!	!	!	!
!	!	!	!	!	!	!	!	!	!	!	!	!	!	!	!	!	!	!	!	!	!	!	!LO:DY:b:t=poco forto	!	!LO:DY:b:t=pia	!	!	!	!
8r	.	.	4B-/	f	(16d/LL	f	8.b-`\L	.	2r	.	.	2r	.	.	2r	.	.	2r	.	.	.	4B-/	f	4b-\	p	2r	.	2r	.
.	.	.	.	.	16f/)	.	.	.	.	.	.	.	.	.	.	.	.	.	.	.	.	.	.	.	.	.	.	.	.
!LO:TX:b:i:t=Solo	!	!	!	!	!	!	!	!	!	!	!	!	!	!	!	!	!	!	!	!	!	!	!	!	!	!	!	!	!
8BB-/	5 3	.	.	.	(16d/	.	.	.	.	.	.	.	.	.	.	.	.	.	.	.	.	.	.	.	.	.	.	.	.
!	!	!	!	!	!	!	!	!LO:DY:b:t=poco forto	!	!	!	!	!	!	!	!	!	!	!	!	!	!	!	!	!	!	!	!	!
.	.	.	.	.	16f/JJ)	.	16b-`\Jk	f	.	.	.	.	.	.	.	.	.	.	.	.	.	.	.	.	.	.	.	.	.
8r	.	.	4E-/	.	(16e-/LL	.	8cc`\L	.	.	.	.	.	.	.	.	.	.	.	.	.	.	4r	.	4r	.	.	.	.	.
.	.	.	.	.	16f/)	.	.	.	.	.	.	.	.	.	.	.	.	.	.	.	.	.	.	.	.	.	.	.	.
8E-\	3	.	.	.	(16e-/	.	8cc`\J	.	.	.	.	.	.	.	.	.	.	.	.	.	.	.	.	.	.	.	.	.	.
.	.	.	.	.	16f/JJ)	.	.	.	.	.	.	.	.	.	.	.	.	.	.	.	.	.	.	.	.	.	.	.	.
=2	=2	=2	=2	=2	=2	=2	=2	=2	=2	=2	=2	=2	=2	=2	=2	=2	=2	=2	=2	=2	=2	=2	=2	=2	=2	=2	=2	=2	=2
.	.	.	.	.	.	.	16qqb-`/	.	.	.	.	.	.	.	.	.	.	.	.	.	.	.	.	.	.	.	.	.	.
8F\L	3	.	4F/	.	(16c/LL	.	8.at/L	.	2r	.	.	2r	.	.	2r	.	.	2r	.	.	.	8f/L	.	8cc\L	.	2r	.	2r	.
.	.	.	.	.	16f/)	.	.	.	.	.	.	.	.	.	.	.	.	.	.	.	.	.	.	.	.	.	.	.	.
8FF/J	.	.	.	.	(16c/	.	.	.	.	.	.	.	.	.	.	.	.	.	.	.	.	16f/L	.	16cc\L	.	.	.	.	.
.	.	.	.	.	16f/JJ)	.	32g/LL	.	.	.	.	.	.	.	.	.	.	.	.	.	.	16f/JJ	.	16cc\JJ	.	.	.	.	.
.	.	.	.	.	.	.	32a/JJJ	.	.	.	.	.	.	.	.	.	.	.	.	.	.	.	.	.	.	.	.	.	.
8BB-/	3	.	8f\	.	8d/L	.	(16b-/LL	.	.	.	.	.	.	.	.	.	.	.	.	.	.	8d/	.	8b-\	.	.	.	.	.
.	.	.	.	.	.	.	16a/)	.	.	.	.	.	.	.	.	.	.	.	.	.	.	.	.	.	.	.	.	.	.
8r	.	.	8r	.	(16d/L	.	(16b-/	.	.	.	.	.	.	.	.	.	.	.	.	.	.	8r	.	8r	.	.	.	.	.
.	.	.	.	.	16f/JJ)	.	16cc/JJ)	.	.	.	.	.	.	.	.	.	.	.	.	.	.	.	.	.	.	.	.	.	.
=3	=3	=3	=3	=3	=3	=3	=3	=3	=3	=3	=3	=3	=3	=3	=3	=3	=3	=3	=3	=3	=3	=3	=3	=3	=3	=3	=3	=3	=3
8r	.	.	4B-/	.	(16b-/LL	.	8.dd`\L	.	2r	.	.	2r	.	.	2r	.	.	2r	.	.	.	4B-/	.	4b-\	.	2r	.	2r	.
.	.	.	.	.	16f/)	.	.	.	.	.	.	.	.	.	.	.	.	.	.	.	.	.	.	.	.	.	.	.	.
8BB-/L	3	.	.	.	(16b-/	.	.	.	.	.	.	.	.	.	.	.	.	.	.	.	.	.	.	.	.	.	.	.	.
.	.	.	.	.	16f/JJ)	.	16dd`\Jk	.	.	.	.	.	.	.	.	.	.	.	.	.	.	.	.	.	.	.	.	.	.
8E-/	.	.	4e-\	.	(16cc/LL	.	8ee-`\L	.	.	.	.	.	.	.	.	.	.	.	.	.	.	4r	.	4r	.	.	.	.	.
.	.	.	.	.	16f/)	.	.	.	.	.	.	.	.	.	.	.	.	.	.	.	.	.	.	.	.	.	.	.	.
8C/J	3	.	.	.	(16cc/	.	8ee-`\J	.	.	.	.	.	.	.	.	.	.	.	.	.	.	.	.	.	.	.	.	.	.
.	.	.	.	.	16f/JJ)	.	.	.	.	.	.	.	.	.	.	.	.	.	.	.	.	.	.	.	.	.	.	.	.
=4	=4	=4	=4	=4	=4	=4	=4	=4	=4	=4	=4	=4	=4	=4	=4	=4	=4	=4	=4	=4	=4	=4	=4	=4	=4	=4	=4	=4	=4
.	.	.	.	.	.	.	16qqdd/	.	.	.	.	.	.	.	.	.	.	.	.	.	.	.	.	.	.	.	.	.	.
8F`\L	.	.	4f\	.	(16a/LL	.	(8.ccT\L	.	2r	.	.	2r	.	.	2r	.	.	2r	.	.	.	(4f/	.	(4cc\	.	4r	.	4r	.
.	.	.	.	.	16f/)	.	.	.	.	.	.	.	.	.	.	.	.	.	.	.	.	.	.	.	.	.	.	.	.
8FF`/J	.	.	.	.	(16a/	.	.	.	.	.	.	.	.	.	.	.	.	.	.	.	.	.	.	.	.	.	.	.	.
.	.	.	.	.	16f/JJ)	.	32b-\LL	.	.	.	.	.	.	.	.	.	.	.	.	.	.	.	.	.	.	.	.	.	.
.	.	.	.	.	.	.	32cc\JJJ)	.	.	.	.	.	.	.	.	.	.	.	.	.	.	.	.	.	.	.	.	.	.
8BB-`/	.	.	8f\	.	8b-\	.	8dd\	.	.	.	.	.	.	.	.	.	.	.	.	.	.	8b-\)	.	8dd\)	.	8r	.	8r	.
!	!	!	!	!	!	!	!	!	!	!	!	!	!	!	!	!	!	!	!	!	!	!	!	!	!	!LO:TX:b:i:t=dolce	!	!LO:TX:b:i:t=dolce	!
8r	.	.	8r	.	8r	.	8r	.	.	.	.	.	.	.	.	.	.	.	.	.	.	8r	.	8r	.	(16b-\LL	.	(16dd\LL	.
.	.	.	.	.	.	.	.	.	.	.	.	.	.	.	.	.	.	.	.	.	.	.	.	.	.	16cc\JJ)	.	16ee-\JJ)	.
!	!	!	!	!	!	!	!LO:LB:g=original	!	!	!	!	!	!	!	!	!	!	!	!	!	!	!	!	!	!	!	!	!	!
=5	=5	=5	=5	=5	=5	=5	=5	=5	=5	=5	=5	=5	=5	=5	=5	=5	=5	=5	=5	=5	=5	=5	=5	=5	=5	=5	=5	=5	=5
!LO:TX:b:t=Fagotti	!	!	!	!	!	!	!	!	!	!	!	!	!	!	!	!	!	!	!	!	!	!	!	!	!	!	!	!	!
!	!	!	!	!	!LO:TX:a:i:t=dolce	!	!LO:TX:a:i:t=dolce	!	!	!	!	!	!	!	!	!	!	!	!	!	!	!	!	!LO:TX:t=P:problem: w źródle ślady wilgoci - 3 takty niewidoczne	!	!	!	!	!
!	!	!	!	!	!	!	!	!	!	!	!	!	!	!	!	!	!	!	!	!	!	!LO:TX:t=P:problem: w źródle ślady wilgoci - takty mało czytelne	!	!	!	!	!	!	!
8B-`\L	.	.	4B-/	.	8.d`/L	.	8.f/L	.	2r	.	.	2r	.	.	2r	.	.	2r	.	.	.	4B-/	.	2ryy	.	8.dd\L	.	8.ff`\L	.
8BB-/J	.	.	.	.	.	.	.	.	.	.	.	.	.	.	.	.	.	.	.	.	.	.	.	.	.	.	.	.	.
.	.	.	.	.	16d`/Jk	.	16f#X/Jk	.	.	.	.	.	.	.	.	.	.	.	.	.	.	.	.	.	.	16dd\Jk	.	16ff#X`\Jk	.
8r	.	.	4B-/	.	(16e-/LL	.	(16g/LL	.	.	.	.	.	.	.	.	.	.	.	.	.	.	4B-/	.	.	.	(16ee-\LL	.	(16gg\LL	.
.	.	.	.	.	16f/	.	16a/	.	.	.	.	.	.	.	.	.	.	.	.	.	.	.	.	.	.	16ff\	.	16aa\	.
8E-`\	.	.	.	.	16g/)	.	16b-/)	.	.	.	.	.	.	.	.	.	.	.	.	.	.	.	.	.	.	16gg\)	.	16bb-\)	.
.	.	.	.	.	16e-`/JJ	.	16g`/JJ	.	.	.	.	.	.	.	.	.	.	.	.	.	.	.	.	.	.	16ee-`\JJ	.	16gg`\JJ	.
=6	=6	=6	=6	=6	=6	=6	=6	=6	=6	=6	=6	=6	=6	=6	=6	=6	=6	=6	=6	=6	=6	=6	=6	=6	=6	=6	=6	=6	=6
8B-`\L	.	.	4E-/	.	8.d`/L	.	8.f/L	.	2r	.	.	2r	.	.	2r	.	.	2r	.	.	.	2ryy	.	2ryy	.	8.dd\L	.	8.ff\L	.
8BB-`/J	.	.	.	.	.	.	.	.	.	.	.	.	.	.	.	.	.	.	.	.	.	.	.	.	.	.	.	.	.
.	.	.	.	.	16d`/Jk	.	16f#X/Jk	.	.	.	.	.	.	.	.	.	.	.	.	.	.	.	.	.	.	16dd`\Jk	.	16ff#X`\Jk	.
8r	.	.	4B-/	.	(16e-/LL	.	(16g/LL	.	.	.	.	.	.	.	.	.	.	.	.	.	.	.	.	.	.	(16ee-\LL	.	(16gg\LL	.
.	.	.	.	.	16f/	.	16a/	.	.	.	.	.	.	.	.	.	.	.	.	.	.	.	.	.	.	16ff\	.	16aa\	.
8E-`\	.	.	.	.	16g/)	.	16b-/)	.	.	.	.	.	.	.	.	.	.	.	.	.	.	.	.	.	.	16gg\)	.	16bb-\)	.
.	.	.	.	.	16e-`/JJ	.	16g`/JJ	.	.	.	.	.	.	.	.	.	.	.	.	.	.	.	.	.	.	16ee-`\JJ	.	16gg`\JJ	.
!LO:LB:g=original	!	!	!	!	!LO:LB:g=original	!	!	!	!	!	!	!	!	!	!	!	!	!	!	!	!	!	!	!	!	!	!	!	!
=7	=7	=7	=7	=7	=7	=7	=7	=7	=7	=7	=7	=7	=7	=7	=7	=7	=7	=7	=7	=7	=7	=7	=7	=7	=7	=7	=7	=7	=7
4BB-/	.	.	4E-/	.	(16d/LL	.	16fn`/LL	.	2r	.	.	2r	.	.	2r	.	.	2r	.	.	.	4B-/	.	2ryy	.	16dd`\LL	.	16ffn`\LL	.
.	.	.	.	.	16B-/	.	(16d/	.	.	.	.	.	.	.	.	.	.	.	.	.	.	.	.	.	.	(16b-\	.	(16dd\	.
.	.	.	.	.	16c/)	.	16e-/	.	.	.	.	.	.	.	.	.	.	.	.	.	.	.	.	.	.	16cc\	.	16ee-\	.
.	.	.	.	.	16d`/JJ	.	16f/JJ)	.	.	.	.	.	.	.	.	.	.	.	.	.	.	.	.	.	.	16dd\JJ)	.	16ff\JJ)	.
!	!	!	!	!	!	!	!	!	!	!	!	!	!	!	!	!	!	!	!	!	!	!	!	!	!	!	!	!LO:LB:g=original	!
8E-`\L	.	.	4E-/	.	(16e-/LL	.	(16g/LL	.	.	.	.	.	.	.	.	.	.	.	.	.	.	8r	.	.	.	(16ee-\LL	.	(16gg\LL	.
.	.	.	.	.	16d/)	.	16f/)	.	.	.	.	.	.	.	.	.	.	.	.	.	.	.	.	.	.	16dd\	.	16ff\)	.
8En`\J	.	.	.	.	16c`/	.	16e-`/	.	.	.	.	.	.	.	.	.	.	.	.	.	.	8b-\	.	.	.	16cc\	.	16ee-`\	.
.	.	.	.	.	16B-`/JJ	.	16d`/JJ	.	.	.	.	.	.	.	.	.	.	.	.	.	.	.	.	.	.	16b-\JJ)	.	16dd`\JJ	.
!	!	!	!LO:LB:g=original	!	!	!	!	!	!	!	!	!	!	!	!	!	!	!	!	!	!	!	!	!	!	!	!	!	!
!	!	!	!	!	!	!	!	!	!	!	!	!	!	!	!	!	!	!	!	!	!	!	!	!	!	!LO:LB:g=original	!	!	!
!	!	!	!	!	!	!	!	!	!	!	!	!	!	!	!	!	!	!	!	!	!	!	!	!LO:LB:g=original	!	!	!	!	!
=8	=8	=8	=8	=8	=8	=8	=8	=8	=8	=8	=8	=8	=8	=8	=8	=8	=8	=8	=8	=8	=8	=8	=8	=8	=8	=8	=8	=8	=8
8F`\L	.	.	8F/L	.	8.B-M/L	.	8.d/L	.	2r	.	.	2r	.	.	2r	.	.	2r	.	.	.	4b-\	.	4dd\	.	8.b-T\L	.	8.ddt\L	.
8C`\J	.	.	8F/	.	.	.	.	.	.	.	.	.	.	.	.	.	.	.	.	.	.	.	.	.	.	.	.	.	.
.	.	.	.	.	(32A/LL	.	(32c/LL	.	.	.	.	.	.	.	.	.	.	.	.	.	.	.	.	.	.	(32a\LL	.	(32cc\LL	.
.	.	.	.	.	32B-/JJJ)	.	32d/JJJ)	.	.	.	.	.	.	.	.	.	.	.	.	.	.	.	.	.	.	32b-\JJJ)	.	32dd\JJJ)	.
!LO:TX:t=P:problem:mixed beam	!	!	!	!	!	!	!	!	!	!	!	!	!	!	!	!	!	!	!	!	!	!	!	!	!	!	!	!	!
16FF/LL	.	.	8f\J	.	8A/	.	8c/	.	.	.	.	.	.	.	.	.	.	.	.	.	.	8f/	.	8cc\	.	8a\	.	8cc\	.
!LO:TX:b:t=Con Org&colon;	!	!	!	!	!	!	!	!	!	!	!	!	!	!	!	!	!	!	!	!	!	!	!	!	!	!	!	!	!
16E-`\	.	.	.	.	.	.	.	.	.	.	.	.	.	.	.	.	.	.	.	.	.	.	.	.	.	.	.	.	.
16D`\	.	.	8r	.	8r	.	8r	.	.	.	.	.	.	.	.	.	.	.	.	.	.	8r	.	8r	.	8r	.	8r	.
16C`\JJ	.	.	.	.	.	.	.	.	.	.	.	.	.	.	.	.	.	.	.	.	.	.	.	.	.	.	.	.	.
=9	=9	=9	=9	=9	=9	=9	=9	=9	=9	=9	=9	=9	=9	=9	=9	=9	=9	=9	=9	=9	=9	=9	=9	=9	=9	=9	=9	=9	=9
!	!	!	!	!	!	!	!	!	!	!	!	!	!	!	!	!	!	!LO:TX:t=P:problem: "dolce" dopisane na pięciolinii czerwonym tuszem	!	!	!	!	!	!	!	!	!	!	!
!	!	!	!	!	!	!	!	!	!	!	!	!	!	!	!	!	!	!LO:TX:b:i:t=dolce	!	!	!	!LO:TX:a:t=4	!	!LO:TX:a:t=4	!	!LO:TX:a:t=3	!	!LO:TX:a:t=3	!
!	!	!	!	!	!	!	!	!LO:DY:b:t=pia&colon;	!	!	!	!	!	!	!	!	!	!	!	!	!	!	!	!	!	!	!	!	!
!	!	!	!	!LO:DY:b:t=piano	!	!LO:DY:b:t=piano	!	!	!	!	!	!	!	!	!	!	!	!	!	!	!	!	!	!	!	!	!	!	!
8r	.	.	4f\	p	4d/	p	4b-\	p	2r	.	.	2r	.	.	2r	.	.	(4b-\	Tan-	Ge-	.	2r	.	2r	.	2r	.	2r	.
!LO:TX:b:i:t=Solo	!	!	!	!	!	!	!	!	!	!	!	!	!	!	!	!	!	!	!	!	!	!	!	!	!	!	!	!	!
8BB-/L	8 3	.	.	.	.	.	.	.	.	.	.	.	.	.	.	.	.	.	.	.	.	.	.	.	.	.	.	.	.
!	!	!	!	!	!	!	!LO:TX:b:t=vox	!	!	!	!	!	!	!	!	!	!	!	!	!	!	!	!	!	!	!	!	!	!
8D/	.	.	8d\L	.	(16f/LL	.	(16dd\LL	.	.	.	.	.	.	.	.	.	.	16dd\LL	.	.	.	.	.	.	.	.	.	.	.
.	.	.	.	.	16d/)	.	16b-\)	.	.	.	.	.	.	.	.	.	.	16b-\JJ)	.	.	.	.	.	.	.	.	.	.	.
8BB-/J	.	.	8f\J	.	(16f/	.	(16dd\	.	.	.	.	.	.	.	.	.	.	(16dd\LL	-tum	-ni-	.	.	.	.	.	.	.	.	.
.	.	.	.	.	16d/JJ)	.	16b-\JJ)	.	.	.	.	.	.	.	.	.	.	16b-\JJ)	.	.	.	.	.	.	.	.	.	.	.
=10	=10	=10	=10	=10	=10	=10	=10	=10	=10	=10	=10	=10	=10	=10	=10	=10	=10	=10	=10	=10	=10	=10	=10	=10	=10	=10	=10	=10	=10
8F\L	3 7	.	4e-\	.	(8.c/L	.	(8.a/L	.	2r	.	.	2r	.	.	2r	.	.	(8.a\L	er-	-to-	.	2r	.	2r	.	2r	.	2r	.
8FF/J	.	.	.	.	.	.	.	.	.	.	.	.	.	.	.	.	.	.	.	.	.	.	.	.	.	.	.	.	.
.	.	.	.	.	32d/LL	.	32b-/LL	.	.	.	.	.	.	.	.	.	.	32b-\LL	.	.	.	.	.	.	.	.	.	.	.
.	.	.	.	.	32e-/JJJ)	.	32cc/JJJ)	.	.	.	.	.	.	.	.	.	.	32cc\JJJ)	.	.	.	.	.	.	.	.	.	.	.
!LO:TX:t=P:problem:mixed beam	!	!	!	!	!	!	!	!	!	!	!	!	!	!	!	!	!	!	!	!	!	!	!	!	!	!	!	!	!
16BB-`/LL	3	.	8f\	.	8d/	.	8b-\	.	.	.	.	.	.	.	.	.	.	8b-\	-go	-ri	.	.	.	.	.	.	.	.	.
16B-`\	.	.	.	.	.	.	.	.	.	.	.	.	.	.	.	.	.	.	.	.	.	.	.	.	.	.	.	.	.
16F`\	.	.	8r	.	8r	.	8r	.	.	.	.	.	.	.	.	.	.	8r	.	.	.	.	.	.	.	.	.	.	.
16D`\JJ	.	.	.	.	.	.	.	.	.	.	.	.	.	.	.	.	.	.	.	.	.	.	.	.	.	.	.	.	.
=11	=11	=11	=11	=11	=11	=11	=11	=11	=11	=11	=11	=11	=11	=11	=11	=11	=11	=11	=11	=11	=11	=11	=11	=11	=11	=11	=11	=11	=11
8r	.	.	4f\	.	4b-\	.	4dd\	.	2r	.	.	2r	.	.	(4b-\	ſa-	Ge-	(4dd\	ſa-	ge-	.	2r	.	2r	.	2r	.	2r	.
8BB-/L	9 8	.	.	.	.	.	.	.	.	.	.	.	.	.	.	.	.	.	.	.	.	.	.	.	.	.	.	.	.
8D/	.	.	8d\L	.	(16dd\LL	.	(16ff\LL	.	.	.	.	.	.	.	16dd\LL	.	.	16ff\LL	.	.	.	.	.	.	.	.	.	.	.
.	.	.	.	.	16b-\)	.	16dd\)	.	.	.	.	.	.	.	16b-\JJ)	.	.	16dd\JJ)	.	.	.	.	.	.	.	.	.	.	.
8BB-/J	.	.	8f\J	.	(16dd\	.	(16ff\	.	.	.	.	.	.	.	16dd\LL	-cra-	-ni-	(16ff\LL	-cra-	-ni-	.	.	.	.	.	.	.	.	.
.	.	.	.	.	16b-\JJ)	.	16dd\JJ)	.	.	.	.	.	.	.	16b-\JJ	.	.	16dd\JJ)	.	.	.	.	.	.	.	.	.	.	.
!	!	!	!	!	!	!	!LO:LB:g=original	!	!	!	!	!	!	!	!	!	!	!	!	!	!	!	!	!	!	!	!	!	!
=12	=12	=12	=12	=12	=12	=12	=12	=12	=12	=12	=12	=12	=12	=12	=12	=12	=12	=12	=12	=12	=12	=12	=12	=12	=12	=12	=12	=12	=12
8F\L	7 3	.	4e-\	.	(8.a\L	.	(8.ccM\L	.	2r	.	.	2r	.	.	(8.a\L	-men-	-to-	(8.cc\L	-men-	-to-	.	2r	.	2r	.	4r	.	4r	.
8FF/	.	.	.	.	.	.	.	.	.	.	.	.	.	.	.	.	.	.	.	.	.	.	.	.	.	.	.	.	.
.	.	.	.	.	32b-\LL	.	32dd\LL	.	.	.	.	.	.	.	32b-\LL	.	.	32dd\LL	.	.	.	.	.	.	.	.	.	.	.
.	.	.	.	.	32cc\JJJ)	.	32ee-\JJJ)	.	.	.	.	.	.	.	32cc\JJJ)	.	.	32ee-\JJJ)	.	.	.	.	.	.	.	.	.	.	.
!	!	!	!	!	!	!	!LO:TX:t=P:problem:mixed beam	!	!	!	!	!	!	!	!	!	!	!	!	!	!	!	!	!	!	!	!	!	!
8BB-/J	9	.	8f\	.	8b-\	.	8dd\L	.	.	.	.	.	.	.	8b-\	-tum	-que	8dd\	-tum	-que	.	.	.	.	.	8r	.	8r	.
!	!	!	!	!	!	!	!	!	!	!	!	!	!	!	!	!	!	!	!	!	!	!	!	!	!	!LO:TX:b:i:t=dolce	!	!LO:TX:b:i:t=dolce	!
8r	.	.	8r	.	8r	.	(16d/L	.	.	.	.	.	.	.	8r	.	.	8r	.	.	.	.	.	.	.	(16b-\LL	.	(16dd\LL	.
.	.	.	.	.	.	.	16e-/JJ)	.	.	.	.	.	.	.	.	.	.	.	.	.	.	.	.	.	.	16cc\JJ)	.	16ee-\JJ)	.
=13	=13	=13	=13	=13	=13	=13	=13	=13	=13	=13	=13	=13	=13	=13	=13	=13	=13	=13	=13	=13	=13	=13	=13	=13	=13	=13	=13	=13	=13
!LO:TX:b:t=Pedal	!	!	!	!	!	!	!	!	!	!	!	!	!	!	!	!	!	!	!	!	!	!	!	!	!	!	!	!	!
!	!	!	!	!	!LO:TX:a:i:t=dolce	!	!	!	!	!	!	!	!	!	!LO:TX:a:t=2	!	!	!LO:TX:a:t=2	!	!	!	!	!	!	!	!	!	!	!
8BB-/L	.	.	4b-\	.	8.d/L	.	8.f/L	.	2r	.	.	2r	.	.	2r	.	.	2r	.	.	.	8B-/L	.	8b-`\L	.	(8.dd\L	.	8.ff\L	.
8B-`\J	.	.	.	.	.	.	.	.	.	.	.	.	.	.	.	.	.	.	.	.	.	8B-/J	.	8b-`\J	.	.	.	.	.
.	.	.	.	.	16B-/Jk	.	16d/Jk	.	.	.	.	.	.	.	.	.	.	.	.	.	.	.	.	.	.	16b-\Jk)	.	16dd\Jk	.
8r	.	.	8b-\L	.	(16g/LL	.	(16b-/LL	.	.	.	.	.	.	.	.	.	.	.	.	.	.	4r	.	4r	.	(16gg\LL	.	(16bb-\LL	.
.	.	.	.	.	16f#X/	.	16a/	.	.	.	.	.	.	.	.	.	.	.	.	.	.	.	.	.	.	16ff#X\	.	16aa\	.
8E-`\	.	.	8b-\J	.	16g/)	.	16b-/)	.	.	.	.	.	.	.	.	.	.	.	.	.	.	.	.	.	.	16gg\)	.	16bb-\)	.
.	.	.	.	.	16e-`/JJ	.	16g`/JJ	.	.	.	.	.	.	.	.	.	.	.	.	.	.	.	.	.	.	16ee-`\JJ	.	16aa\JJ	.
=14	=14	=14	=14	=14	=14	=14	=14	=14	=14	=14	=14	=14	=14	=14	=14	=14	=14	=14	=14	=14	=14	=14	=14	=14	=14	=14	=14	=14	=14
8BB-`/L	.	.	4b-\	.	8.d/L	.	8.f/L	.	2r	.	.	2r	.	.	2r	.	.	2r	.	.	.	8B-/L	.	8b-`\L	.	8.dd\L	.	(8.ff\L	.
8B-`\J	.	.	.	.	.	.	.	.	.	.	.	.	.	.	.	.	.	.	.	.	.	8B-/J	.	8b-`\J	.	.	.	.	.
.	.	.	.	.	16B-/Jk	.	16d/Jk	.	.	.	.	.	.	.	.	.	.	.	.	.	.	.	.	.	.	16b-\Jk	.	16dd\Jk)	.
8r	.	.	8b-\L	.	(16g/LL	.	(16b-/LL	.	.	.	.	.	.	.	.	.	.	.	.	.	.	4r	.	4r	.	(16gg\LL	.	(16bb-\LL	.
.	.	.	.	.	16f#X/	.	16a/	.	.	.	.	.	.	.	.	.	.	.	.	.	.	.	.	.	.	16ff#X\	.	16aa\	.
8E-`\	.	.	8b-\J	.	16g/)	.	16b-/)	.	.	.	.	.	.	.	.	.	.	.	.	.	.	.	.	.	.	16gg\)	.	16bb-\)	.
.	.	.	.	.	16e-`/JJ	.	16g`/JJ	.	.	.	.	.	.	.	.	.	.	.	.	.	.	.	.	.	.	16ee-`\JJ	.	16aa`\JJ	.
!	!	!	!	!	!	!	!	!	!	!	!	!	!	!	!	!	!	!LO:LB:g=original	!	!	!	!	!	!	!	!	!	!	!
!	!	!	!	!	!LO:LB:g=original	!	!	!	!	!	!	!	!	!	!	!	!	!	!	!	!	!	!	!	!	!	!	!	!
=15	=15	=15	=15	=15	=15	=15	=15	=15	=15	=15	=15	=15	=15	=15	=15	=15	=15	=15	=15	=15	=15	=15	=15	=15	=15	=15	=15	=15	=15
!LO:TX:b:t=Con Org&colon;	!	!	!	!	!	!	!	!	!	!	!	!	!	!	!	!	!	!	!	!	!	!	!	!	!	!LO:TX:a:t=2	!	!LO:TX:a:t=2	!
4BB-/	5 3	.	4b-\	.	8.d/L	.	8.f/L	.	2r	.	.	2r	.	.	8.dd\	ve-	laus	8.ff\	ve-	laus	.	4B-/	.	4b-`\	.	2r	.	2r	.
.	.	.	.	.	16d/Jk	.	16f#X/Jk	.	.	.	.	.	.	.	16dd\	-ne-	et	16ff#X\	-ne-	et	.	.	.	.	.	.	.	.	.
!	!	!	!	!	!	!	!	!	!	!	!	!	!	!	!LO:LB:g=original	!	!	!	!	!	!	!	!	!	!	!	!	!	!
8E-\L	3:2 8:7	.	8g\L	.	(16e-/LL	.	(16g/LL	.	.	.	.	.	.	.	16ee-\LL	-re-	ju-	(16gg\LL	-re-	ju-	.	4r	.	4r	.	.	.	.	.
.	.	.	.	.	16d/	.	16fn/	.	.	.	.	.	.	.	16dd\JJ	.	.	16ffn\JJ)	.	.	.	.	.	.	.	.	.	.	.
8En\J	-8:7_ 6:5_	.	8g\J	.	16c/	.	16e-/	.	.	.	.	.	.	.	16cc\LL	-mur	-bi-	16ee-\LL	-mur	-bi-	.	.	.	.	.	.	.	.	.
.	.	.	.	.	16B-/JJ)	.	16d/JJ)	.	.	.	.	.	.	.	16b-\JJ	.	.	16dd\JJ	.	.	.	.	.	.	.	.	.	.	.
=16	=16	=16	=16	=16	=16	=16	=16	=16	=16	=16	=16	=16	=16	=16	=16	=16	=16	=16	=16	=16	=16	=16	=16	=16	=16	=16	=16	=16	=16
!	!	!	!	!	!	!	!	!	!	!	!	!	!	!	!	!	!	!	!	!	!	!	!	!LO:TX:t=P:problem: między t. 15 a t. 16 powyżej dopisany fragment (?) i zamazany	!	!	!	!	!
!LO:TX:t=P:problem:mixed beam	!	!	!	!	!	!	!	!	!	!	!	!	!	!	!	!	!	!	!	!	!	!LO:TX:a:t=1	!	!	!	!	!	!	!
8F\L	.	.	4f\	.	(8.B-M/L	.	8.d/L	.	2r	.	.	2r	.	.	8.b-\	cer-	-la-	8.dd\	cer-	-la-	.	2r	.	4r	.	2r	.	2r	.
8C\	5 3	.	.	.	.	.	.	.	.	.	.	.	.	.	.	.	.	.	.	.	.	.	.	.	.	.	.	.	.
.	.	.	.	.	32A/LL	.	32c/LL	.	.	.	.	.	.	.	32a\LLL	-nu-	-ti-	32cc\LLL	-nu-	-ti-	.	.	.	.	.	.	.	.	.
.	.	.	.	.	32B-/JJJ)	.	32d/JJJ	.	.	.	.	.	.	.	32b-\JJJ	.	.	32dd\JJJ	.	.	.	.	.	.	.	.	.	.	.
8FF/J	.	.	16f\LL	.	8A/	.	8c/	.	.	.	.	.	.	.	8a\	-i	-o	8cc\	-i	-o	.	.	.	8cc\L	.	.	.	.	.
.	.	.	16cc`\	.	.	.	.	.	.	.	.	.	.	.	.	.	.	.	.	.	.	.	.	.	.	.	.	.	.
8r	.	.	16cc`\	.	8r	.	8r	.	.	.	.	.	.	.	8r	.	.	8r	.	.	.	.	.	16cc\L	.	.	.	.	.
.	.	.	16cc`\JJ	.	.	.	.	.	.	.	.	.	.	.	.	.	.	.	.	.	.	.	.	16cc\JJ	.	.	.	.	.
=17	=17	=17	=17	=17	=17	=17	=17	=17	=17	=17	=17	=17	=17	=17	=17	=17	=17	=17	=17	=17	=17	=17	=17	=17	=17	=17	=17	=17	=17
!LO:TX:b:i:t=Tutti	!	!	!	!	!	!	!	!	!	!	!	!	!	!	!	!	!	!	!	!	!LO:DY:a	!	!	!	!	!	!	!	!
!	!	!	!	!	!	!LO:DY:b:t=forto	!	!	!	!	!	!	!	!	!	!	!	!	!	!	!	!	!	!	!	!	!	!	!
!	!	!	!	!	!	!	!	!	!	!	!	!	!	!	!	!	!	!LO:TX:t=P:problem:"forlo" dopisane na pięciolinii czerwonym tuszem	!	!	!LO:DY:a:t=forlo	!	!	!	!	!	!	!	!
!	!	!	!	!	!	!	!	!LO:DY:b:t=forto	!	!	!	!	!	!	!	!	!	!	!	!	!	!	!	!	!	!	!	!	!
*	*	*	*	*	*	*	*	*	*	*	*	*	*	*	*	*	*	*	*	*	*	*	*	*	*	*2\right	*	*2\right	*
!	!	!	!	!	!	!	!	!	!	!	!	!	!	!	!	!	!	!	!	!	!	!	!LO:DY:b:t=forto	!	!	!	!LO:DY:b:t=forto	!	!LO:DY:b:t=fort
16F\LL	5_ 3_	.	32a`\LLL	.	16r	f	16r	f	4.F\	Et	ſa-	4.c\	Et	ſa-	4.a\	et	ſa-	4.ff\	et	ſa-	f	8.f/L	f	8.cc\L	.	2a\	f	2ff\	f
.	.	.	32a`\	.	.	.	.	.	.	.	.	.	.	.	.	.	.	.	.	.	.	.	.	.	.	.	.	.	.
16A\	.	.	32cc`\	.	16c'/LL	.	16cc'\LL	.	.	.	.	.	.	.	.	.	.	.	.	.	.	.	.	.	.	.	.	.	.
.	.	.	32cc`\JJJ	.	.	.	.	.	.	.	.	.	.	.	.	.	.	.	.	.	.	.	.	.	.	.	.	.	.
16F\	.	.	32a`\LLL	.	16c'/	.	16cc'\	.	.	.	.	.	.	.	.	.	.	.	.	.	.	.	.	.	.	.	.	.	.
.	.	.	32a`\	.	.	.	.	.	.	.	.	.	.	.	.	.	.	.	.	.	.	.	.	.	.	.	.	.	.
16A\JJ	.	.	32cc`\	.	16c'/JJ	.	16cc'\JJ	.	.	.	.	.	.	.	.	.	.	.	.	.	.	16f/Jk	.	16cc\Jk	.	.	.	.	.
.	.	.	32cc`\JJJ	.	.	.	.	.	.	.	.	.	.	.	.	.	.	.	.	.	.	.	.	.	.	.	.	.	.
!	!	!	!LO:LB:g=original	!	!	!	!	!	!	!	!	!	!	!	!	!	!	!	!	!	!	!	!	!	!	!	!	!	!
!LO:LB:g=original	!	!	!	!	!	!	!	!	!	!	!	!	!	!	!	!	!	!	!	!	!	!	!	!	!	!	!	!	!
16F\LL	5_ 3_	.	32a`\LLL	.	(32c/LLL	.	(32cc\LLL	.	.	.	.	.	.	.	.	.	.	.	.	.	.	8f/L	.	8cc\L	.	.	.	.	.
.	.	.	32a`\	.	32f/	.	32ff\	.	.	.	.	.	.	.	.	.	.	.	.	.	.	.	.	.	.	.	.	.	.
16A\	.	.	32cc`\	.	32a/	.	32aa\	.	.	.	.	.	.	.	.	.	.	.	.	.	.	.	.	.	.	.	.	.	.
.	.	.	32cc\JJJ	.	32g/JJJ	.	32gg\JJJ	.	.	.	.	.	.	.	.	.	.	.	.	.	.	.	.	.	.	.	.	.	.
16F\	.	.	32a\LLL	.	32f/LLL	.	32ff\LLL	.	8F\	an-	-lus	8c\	an-	-lus	8a\	an-	-lus	8ff\	an-	-lus	.	8f/J	.	8cc\J	.	.	.	.	.
.	.	.	32a\	.	32en/	.	32een\	.	.	.	.	.	.	.	.	.	.	.	.	.	.	.	.	.	.	.	.	.	.
16A\JJ	.	.	32cc\	.	(32d/)	.	32dd\	.	.	.	.	.	.	.	.	.	.	.	.	.	.	.	.	.	.	.	.	.	.
.	.	.	32cc\JJJ	.	32c/JJJ)	.	32cc\JJJ)	.	.	.	.	.	.	.	.	.	.	.	.	.	.	.	.	.	.	.	.	.	.
!	!	!	!	!	!	!	!LO:LB:g=original	!	!	!	!	!	!	!	!	!	!	!	!	!	!	!	!	!	!	!	!	!	!
=18	=18	=18	=18	=18	=18	=18	=18	=18	=18	=18	=18	=18	=18	=18	=18	=18	=18	=18	=18	=18	=18	=18	=18	=18	=18	=18	=18	=18	=18
16G\LL	6_ 4_	.	32b-`\LLL	.	(32c/LLL	.	(32cc\LLL	.	4G\	-ti-	ho-	4c\	-ti-	ho-	4b-\	-ti-	ho-	4een\	-ti-	ho-	.	4cc\	.	4cc\	.	2b-\	.	2ee-\	.
.	.	.	32b-`\	.	32B-/	.	32b-\	.	.	.	.	.	.	.	.	.	.	.	.	.	.	.	.	.	.	.	.	.	.
16B-\	.	.	32cc`\	.	32A/	.	32a\	.	.	.	.	.	.	.	.	.	.	.	.	.	.	.	.	.	.	.	.	.	.
.	.	.	32cc`\JJJ	.	32B-/JJJ)	.	32b-\JJJ)	.	.	.	.	.	.	.	.	.	.	.	.	.	.	.	.	.	.	.	.	.	.
16G\	.	.	32b-\LLL	.	16B-`/LL	.	16b-`\LL	.	.	.	.	.	.	.	.	.	.	.	.	.	.	.	.	.	.	.	.	.	.
.	.	.	32b-\	.	.	.	.	.	.	.	.	.	.	.	.	.	.	.	.	.	.	.	.	.	.	.	.	.	.
16B-\JJ	.	.	32cc\	.	16B-`/JJ	.	16b-`\JJ	.	.	.	.	.	.	.	.	.	.	.	.	.	.	.	.	.	.	.	.	.	.
.	.	.	32cc\JJJ	.	.	.	.	.	.	.	.	.	.	.	.	.	.	.	.	.	.	.	.	.	.	.	.	.	.
16G\LL	.	.	32b-\LLL	.	16r	.	16r	.	4G\	-qum	-nor	4c\	-qum	-nor	4b-\	-qum	-nor	4ee\	-qum	-nor	.	8cc\	.	8cc\	.	.	.	.	.
.	.	.	32b-\	.	.	.	.	.	.	.	.	.	.	.	.	.	.	.	.	.	.	.	.	.	.	.	.	.	.
16B-\	.	.	32cc\	.	16B-`/LL	.	(16b-\LL	.	.	.	.	.	.	.	.	.	.	.	.	.	.	.	.	.	.	.	.	.	.
.	.	.	32cc\JJJ	.	.	.	.	.	.	.	.	.	.	.	.	.	.	.	.	.	.	.	.	.	.	.	.	.	.
16G\	.	.	32b-\LLL	.	(16A/	.	16a\	.	.	.	.	.	.	.	.	.	.	.	.	.	.	8r	.	8r	.	.	.	.	.
.	.	.	32b-\	.	.	.	.	.	.	.	.	.	.	.	.	.	.	.	.	.	.	.	.	.	.	.	.	.	.
16B-\JJ	.	.	32cc\	.	16B-/JJ)	.	16b-\JJ)	.	.	.	.	.	.	.	.	.	.	.	.	.	.	.	.	.	.	.	.	.	.
.	.	.	32cc\JJJ	.	.	.	.	.	.	.	.	.	.	.	.	.	.	.	.	.	.	.	.	.	.	.	.	.	.
=19	=19	=19	=19	=19	=19	=19	=19	=19	=19	=19	=19	=19	=19	=19	=19	=19	=19	=19	=19	=19	=19	=19	=19	=19	=19	=19	=19	=19	=19
16En\LL	5 3	.	32g`\LLL	.	16r	.	16r	.	8c\L	do-	vir-	4.c\	do-	vir-	4.b-\	do-	vir-	4.gg\	Do-	vir-	.	8.cc\L	.	8.cc\L	.	2b-\	.	2gg\	.
.	.	.	32g`\	.	.	.	.	.	.	.	.	.	.	.	.	.	.	.	.	.	.	.	.	.	.	.	.	.	.
16G\	.	.	32cc`\	.	16B-'/LL	.	(16b-'\LL	.	.	.	.	.	.	.	.	.	.	.	.	.	.	.	.	.	.	.	.	.	.
.	.	.	32cc`\JJJ	.	.	.	.	.	.	.	.	.	.	.	.	.	.	.	.	.	.	.	.	.	.	.	.	.	.
16E\	.	.	32g\LLL	.	16B-'/	.	16b-'\	.	8G\	.	.	.	.	.	.	.	.	.	.	.	.	.	.	.	.	.	.	.	.
.	.	.	32g\	.	.	.	.	.	.	.	.	.	.	.	.	.	.	.	.	.	.	.	.	.	.	.	.	.	.
16G\JJ	.	.	32cc\	.	16B-'/JJ	.	16b-'\JJ)	.	.	.	.	.	.	.	.	.	.	.	.	.	.	16cc\Jk	.	16cc\Jk	.	.	.	.	.
.	.	.	32cc\JJJ	.	.	.	.	.	.	.	.	.	.	.	.	.	.	.	.	.	.	.	.	.	.	.	.	.	.
16E\LL	.	.	32g\LLL	.	(32B-/LLL	.	(32b-\LLL	.	8En\J	.	.	.	.	.	.	.	.	.	.	.	.	8cc\L	.	8cc\L	.	.	.	.	.
.	.	.	32g\	.	32en/	.	32een\	.	.	.	.	.	.	.	.	.	.	.	.	.	.	.	.	.	.	.	.	.	.
16G\	.	.	32cc\	.	32g/	.	32gg\	.	.	.	.	.	.	.	.	.	.	.	.	.	.	.	.	.	.	.	.	.	.
.	.	.	32cc\JJJ	.	32f/JJJ)	.	32ff\JJJ)	.	.	.	.	.	.	.	.	.	.	.	.	.	.	.	.	.	.	.	.	.	.
16E\	.	.	32g\LLL	.	(32e/LLL	.	(32ee\LLL	.	8C/	-cu-	-tus	8c\	-cu-	-tus	8g\	-cu-	-tus	8een\	-cu-	-tus	.	8cc\J	.	8cc\J	.	.	.	.	.
.	.	.	32g\	.	32d/	.	32dd\	.	.	.	.	.	.	.	.	.	.	.	.	.	.	.	.	.	.	.	.	.	.
16G\JJ	.	.	32cc\	.	32c/	.	32cc\	.	.	.	.	.	.	.	.	.	.	.	.	.	.	.	.	.	.	.	.	.	.
.	.	.	32cc\JJJ	.	32B-/JJJ)	.	32b-\JJJ)	.	.	.	.	.	.	.	.	.	.	.	.	.	.	.	.	.	.	.	.	.	.
=20	=20	=20	=20	=20	=20	=20	=20	=20	=20	=20	=20	=20	=20	=20	=20	=20	=20	=20	=20	=20	=20	=20	=20	=20	=20	=20	=20	=20	=20
!	!	!	!LO:TX:t=P:problem:w źródle ślady wilgoci - ciężki fragment do odczytania	!	!	!	!	!	!	!	!	!	!	!	!	!	!	!	!	!	!	!	!	!	!	!	!	!	!
16F\LL	5 3	.	32a\LLL	.	(16B-/LL	.	(16b-\LL	.	4F\	-men-	quo-	4c\	-men-	quo-	4a\	-men-	quo-	4ff\	-men-	quo-	.	4f/	.	4cc\	.	4a\	.	4ff\	.
.	.	.	32a\	.	.	.	.	.	.	.	.	.	.	.	.	.	.	.	.	.	.	.	.	.	.	.	.	.	.
16A\	.	.	32cc\	.	16A/)	.	16a\)	.	.	.	.	.	.	.	.	.	.	.	.	.	.	.	.	.	.	.	.	.	.
.	.	.	32cc\JJJ	.	.	.	.	.	.	.	.	.	.	.	.	.	.	.	.	.	.	.	.	.	.	.	.	.	.
16F\	.	.	32a\LLL	.	16A'/	.	16a'\	.	.	.	.	.	.	.	.	.	.	.	.	.	.	.	.	.	.	.	.	.	.
.	.	.	32a\	.	.	.	.	.	.	.	.	.	.	.	.	.	.	.	.	.	.	.	.	.	.	.	.	.	.
16A\JJ	.	.	32cc\	.	16A'/JJ	.	16a'\JJ	.	.	.	.	.	.	.	.	.	.	.	.	.	.	.	.	.	.	.	.	.	.
.	.	.	32cc\JJJ	.	.	.	.	.	.	.	.	.	.	.	.	.	.	.	.	.	.	.	.	.	.	.	.	.	.
8F\	.	.	4cc\	.	16r	.	16r	.	8F\	-tum	-que	8c\	-tum	-que	8a\	-tum	-que	8ff\	-tum	-que	.	4r	.	4r	.	4r	.	4r	.
!	!	!	!	!	!	!	!	!LO:DY:b:t=pia	!	!	!	!	!	!	!	!	!	!	!	!	!	!	!	!	!	!	!	!	!
!	!	!	!	!	!	!LO:DY:b:t=pia	!	!	!	!	!	!	!	!	!	!	!	!	!	!	!	!	!	!	!	!	!	!	!
.	.	.	.	.	(16f/LL	p	(16a\LL	p	.	.	.	.	.	.	.	.	.	.	.	.	.	.	.	.	.	.	.	.	.
8r	.	.	.	.	16g/	.	16b-\	.	8r	.	.	8r	.	.	8r	.	.	8r	.	.	.	.	.	.	.	.	.	.	.
.	.	.	.	.	16a/JJ	<	16cc\JJ	.	.	.	.	.	.	.	.	.	.	.	.	.	.	.	.	.	.	.	.	.	.
!	!	!	!	!	!	!	!	!	!	!	!	!	!	!	!	!	!	!LO:LB:g=original	!	!	!	!	!	!	!	!	!	!	!
!	!	!	!	!	!	!	!	!	!	!	!	!LO:LB:g=original	!	!	!	!	!	!	!	!	!	!	!	!	!	!	!LO:LB:g=original	!	!
!	!	!	!	!	!	!	!	!	!	!	!	!	!	!	!	!	!	!	!	!	!	!	!	!	!	!LO:LB:g=original	!	!	!
=21	=21	=21	=21	=21	=21	=21	=21	=21	=21	=21	=21	=21	=21	=21	=21	=21	=21	=21	=21	=21	=21	=21	=21	=21	=21	=21	=21	=21	=21
8BB-/L	3	.	16f\LL	.	16b-\LL	.	16dd\LL	<	4BB-/	no-	ſit	4f\	no-	ſit	4b-\	no-	ſit	4dd\	no-	ſit	.	(4B-/	.	4f/	.	(4b-\	.	(4dd\	.
.	.	.	16f\	.	16cc\JJ)	[	16een\JJ)	[	.	.	.	.	.	.	.	.	.	.	.	.	.	.	.	.	.	.	.	.	.
!	!	!	!	!	!	!LO:DY:b:t=forto	!	!LO:DY:b:t=fort	!	!	!	!	!	!	!	!	!	!	!	!	!	!	!	!	!	!	!	!	!
8B-\J	.	.	16f\	.	(32een\LLL	f	(32gg\LLL	f	.	.	.	.	.	.	.	.	.	.	.	.	.	.	.	.	.	.	.	.	.
.	.	.	.	.	32dd\	.	32ff\	.	.	.	.	.	.	.	.	.	.	.	.	.	.	.	.	.	.	.	.	.	.
.	.	.	16f\JJ	.	32cc\	.	32ee\	.	.	.	.	.	.	.	.	.	.	.	.	.	.	.	.	.	.	.	.	.	.
.	.	.	.	.	32b-\JJJ)	.	32dd\JJJ)	.	.	.	.	.	.	.	.	.	.	.	.	.	.	.	.	.	.	.	.	.	.
!	!	!	!	!	!LO:LB:g=original	!	!	!	!	!	!	!	!	!	!	!	!	!	!	!	!	!	!	!	!	!	!	!	!
8F\	5	.	8f\	.	16a/	.	16cc\	.	8F\	-vo	et	8f\	-vo	et	8a\	-vo	et	8cc\	-vo	et	.	8F/)	.	8f/	.	8a\)	.	8cc\)	.
!	!	!	!	!	!	!LO:DY:b:t=pia	!	!LO:DY:b:t=pia	!	!	!	!	!	!	!	!	!	!	!	!	!	!	!	!	!	!	!	!	!
.	.	.	.	.	(16f/LL	p	(16a\LL	p	.	.	.	.	.	.	.	.	.	.	.	.	.	.	.	.	.	.	.	.	.
8r	.	.	8r	.	16g/	.	16b-\	.	8r	.	.	8r	.	.	8r	.	.	8r	.	.	.	8r	.	8r	.	8r	.	8r	.
.	.	.	.	.	16a/JJ)	.	16cc\JJ	.	.	.	.	.	.	.	.	.	.	.	.	.	.	.	.	.	.	.	.	.	.
!	!	!	!	!	!	!	!	!	!	!	!	!	!	!	!LO:LB:g=original	!	!	!	!	!	!	!	!	!	!	!	!	!	!
!	!	!	!LO:LB:g=original	!	!	!	!	!	!	!	!	!	!	!	!	!	!	!	!	!	!	!	!	!	!	!	!	!	!
!	!	!	!	!	!	!	!	!	!	!	!	!	!	!	!	!	!	!	!	!	!	!LO:LB:g=original	!	!	!	!	!	!	!
=22	=22	=22	=22	=22	=22	=22	=22	=22	=22	=22	=22	=22	=22	=22	=22	=22	=22	=22	=22	=22	=22	=22	=22	=22	=22	=22	=22	=22	=22
8BB-/L	3	.	16f\KL	.	(32b-\LLL	<	32dd\LLL	<	4BB-/	ce-	be-	4f\	ce-	be-	4b-\	ce-	be-	4dd\	ce-	be-	.	(4B-/	.	4f/	.	(4b-\	.	(4dd\	.
.	.	.	.	.	32dd\	.	32ff\	.	.	.	.	.	.	.	.	.	.	.	.	.	.	.	.	.	.	.	.	.	.
.	.	.	8f\	.	32cc\	.	32een\	.	.	.	.	.	.	.	.	.	.	.	.	.	.	.	.	.	.	.	.	.	.
.	.	.	.	.	32dd\JJJ)	[	32ff\JJJ)	[	.	.	.	.	.	.	.	.	.	.	.	.	.	.	.	.	.	.	.	.	.
!	!	!	!	!	!	!	!LO:LB:g=original	!	!	!	!	!	!	!	!	!	!	!	!	!	!	!	!	!	!	!	!	!	!
!	!	!	!	!	!	!LO:DY:b:t=fort	!	!LO:DY:b:t=fort	!	!	!	!	!	!	!	!	!	!	!	!	!	!	!	!	!	!	!	!	!
8B-\J	.	.	.	.	(32een\LLL	f	(32gg\LLL	f	.	.	.	.	.	.	.	.	.	.	.	.	.	.	.	.	.	.	.	.	.
.	.	.	.	.	32dd\	.	32ff\	.	.	.	.	.	.	.	.	.	.	.	.	.	.	.	.	.	.	.	.	.	.
.	.	.	16f\Jk	.	32cc\	.	32een\)	.	.	.	.	.	.	.	.	.	.	.	.	.	.	.	.	.	.	.	.	.	.
.	.	.	.	.	32b-\JJJ)	.	32dd\JJJ	.	.	.	.	.	.	.	.	.	.	.	.	.	.	.	.	.	.	.	.	.	.
8F\	5	.	8f\	.	16a\	.	16cc\	.	8F\	-dat	-ne	8f\	-dat	-ne	8a\	-dat	-ne	8cc\	-dat	-ne	.	8F/)	.	8f/	.	8a\)	.	8cc\)	.
!	!	!	!	!	!	!LO:DY:b:t=pia	!	!LO:DY:b:t=pia	!	!	!	!	!	!	!	!	!	!	!	!	!	!	!	!	!	!	!	!	!
.	.	.	.	.	(16f/LL	p	(16a\LL	p	.	.	.	.	.	.	.	.	.	.	.	.	.	.	.	.	.	.	.	.	.
8r	.	.	8r	.	16g/	.	16b-\	.	8r	.	.	8r	.	.	8r	.	.	8r	.	.	.	8r	.	8r	.	8r	.	8r	.
.	.	.	.	.	16a/JJ)	.	16cc\JJ	.	.	.	.	.	.	.	.	.	.	.	.	.	.	.	.	.	.	.	.	.	.
!	!	!	!	!	!	!	!	!	!LO:LB:g=original	!	!	!	!	!	!	!	!	!	!	!	!	!	!	!	!	!	!	!	!
!	!	!	!	!	!	!	!	!	!	!	!	!	!	!	!	!	!	!	!	!	!	!	!	!LO:LB:g=original	!	!	!	!	!
=23	=23	=23	=23	=23	=23	=23	=23	=23	=23	=23	=23	=23	=23	=23	=23	=23	=23	=23	=23	=23	=23	=23	=23	=23	=23	=23	=23	=23	=23
!	!	!	!	!	!	!LO:DY:b:t=fort	!	!LO:DY:b:t=forto	!	!	!	!	!	!	!	!	!	!	!	!	!	!	!	!	!	!	!	!	!
16B-\LL	3	.	8f\L	.	(16b-\LL	f	16dd\LL	f	8B-\	ce-	be-	8f\	ce-	be-	8b-\	ce-	be-	16dd\LL	ce-	be-	.	8B-/	.	8f/	.	8.b-\L	.	8.dd\L	.
16B-\	.	.	.	.	32cc\L	.	32een\L	.	.	.	.	.	.	.	.	.	.	16ff\JJ	.	.	.	.	.	.	.	.	.	.	.
.	.	.	.	.	32dd\JJJ	.	32ff\JJJ)	.	.	.	.	.	.	.	.	.	.	.	.	.	.	.	.	.	.	.	.	.	.
16G\	.	.	8d\	.	32cc\LLL	.	(32ee\LLL	.	8G\	-dat	-ne-	8d\	-dat	-ne-	(32cc\LLL	-dat	-ne-	(32een\LLL	-dat	-ne-	.	8r	.	8r	.	.	.	.	.
.	.	.	.	.	32b-\	.	32dd\	.	.	.	.	.	.	.	32b-\	.	.	32dd\	.	.	.	.	.	.	.	.	.	.	.
16G\JJ	.	.	.	.	32a\	.	32cc\)	.	.	.	.	.	.	.	32a\	.	.	32cc\	.	.	.	.	.	.	.	16b-\Jk	.	16gg\Jk	.
.	.	.	.	.	32g\JJJ)	.	32b-\JJJ	.	.	.	.	.	.	.	32g\JJJ)	.	.	32b-\JJJ)	.	.	.	.	.	.	.	.	.	.	.
!LO:TX:t=P:problem:mixed beam	!	!	!	!	!	!	!	!	!	!	!	!	!	!	!	!	!	!	!	!	!	!	!	!	!	!	!	!	!
16c\LL	4	.	8c\	.	8f/L	.	8a/L	.	8c\	ri-	-dic-	8c\	ri-	-dic-	8f\	ri-	-dic-	8a\	ri-	-dic-	.	8cc\L	.	8cc\L	.	8a\L	.	8ff\L	.
16c\	.	.	.	.	.	.	.	.	.	.	.	.	.	.	.	.	.	.	.	.	.	.	.	.	.	.	.	.	.
16C/	n	.	8c\J	.	8en/J	.	8g/J	.	8C/	-tu-	-ti-	8B-\	-tu-	-ti-	8cc\	-tu-	-ti-	8f\	-tu-	-ti-	.	8cc\J	.	8cc\J	.	8g\J	.	8ee-\J	.
16C/JJ	.	.	.	.	.	.	.	.	.	.	.	.	.	.	.	.	.	.	.	.	.	.	.	.	.	.	.	.	.
=24	=24	=24	=24	=24	=24	=24	=24	=24	=24	=24	=24	=24	=24	=24	=24	=24	=24	=24	=24	=24	=24	=24	=24	=24	=24	=24	=24	=24	=24
*	*	*	*	*	*^	*	*^	*	*	*	*	*	*	*	*	*	*	*	*	*	*	*	*	*	*	*	*	*	*
!	!	!	!LO:TX:b:i:t=dolce	!	!	!	!	!	!	!	!	!	!	!	!	!	!	!	!	!	!	!	!	!	!	!	!	!	!	!	!
8F\	3	.	(16c\LL	.	8f/	8reee	.	8f/	8ryy	.	8F\	-i	-o	8A\	-i	-o	8cc\	-i	-o	8f/	-i	-o	.	8f/	.	8cc`\L	.	8a\	.	8ff\	.
.	.	.	16cc\)	.	.	.	.	.	.	.	.	.	.	.	.	.	.	.	.	.	.	.	.	.	.	.	.	.	.	.	.
!	!	!	!	!	!	!	!	!	!	!	!	!	!	!	!	!	!	!	!	!	!	!	!	!	!	!LO:TX:a:i:t=dolce	!	!	!	!	!
!	!	!	!	!	!	!	!	!LO:TX:b:t=Clarinetto	!	!	!	!	!	!	!	!	!	!	!	!	!	!	!	!	!	!LO:TX:b:i:t=Solo	!	!	!	!	!
8r	.	.	16cc`\	.	16r	8r	.	16r	8r	.	8r	.	.	8r	.	.	8r	.	.	8r	.	.	.	8r	.	16cc'\L	.	16r	.	16r	.
!	!	!	!	!	!	!	!	!	!	!	!	!	!	!	!	!	!	!	!	!	!	!	!	!	!	!	!	!LO:TX:b:i:t=B Solo	!	!LO:TX:b:i:t=B Solo	!
.	.	.	16cc`\JJ	.	16ff`</	.	.	16aa/	.	.	.	.	.	.	.	.	.	.	.	.	.	.	.	.	.	16cc'\JJ	.	16ff`\	.	16aa`\	.
4r	.	.	16cc`\LL	.	8gg`</	4r	.	8bb-/	4r	.	4r	.	.	4r	.	.	4r	.	.	4r	.	.	.	4r	.	16cc'\LL	.	8gg`\	.	8bb-`\	.
.	.	.	16cc`\	.	.	.	.	.	.	.	.	.	.	.	.	.	.	.	.	.	.	.	.	.	.	16cc'\	.	.	.	.	.
.	.	.	16cc`\	.	16rg	.	.	16rg	.	.	.	.	.	.	.	.	.	.	.	.	.	.	.	.	.	16cc'\	.	16r	.	16r	.
.	.	.	16cc`\JJ	.	16een`</	.	.	16gg/	.	.	.	.	.	.	.	.	.	.	.	.	.	.	.	.	.	16cc'\JJ	.	16eeX`\	.	16gg`\	.
=25	=25	=25	=25	=25	=25	=25	=25	=25	=25	=25	=25	=25	=25	=25	=25	=25	=25	=25	=25	=25	=25	=25	=25	=25	=25	=25	=25	=25	=25	=25	=25
*	*	*	*tremolo	*	*	*	*	*	*	*	*	*	*	*	*	*	*	*	*	*	*	*	*	*	*	*2\right	*	*	*	*	*
*	*	*	*2\right	*	*	*	*	*	*	*	*	*	*	*	*	*	*	*	*	*	*	*	*	*	*	*tremolo	*	*	*	*	*
!LO:TX:a:t=3	!	!	!	!	!	!	!	!	!	!	!LO:TX:a:t=3	!	!	!	!	!	!LO:TX:a:t=3	!	!	!LO:TX:a:t=3	!	!	!	!LO:TX:a:t=3	!	!	!	!	!	!	!
!	!	!	!	!	!	!	!	!	!	!LO:DY:b:t=piano	!	!	!	!	!	!	!	!	!	!	!	!	!	!	!	!	!	!	!	!	!
!	!	!	!LO:TX:t=P:problem: nad tremolem 8 razy spiccato	!	!	!	!LO:DY:b:t=piano	!	!	!	!	!	!	!	!	!	!	!	!	!	!	!	!	!	!	!	!	!	!	!	!
!	!	!	!	!	!	!	!	!	!	!	!	!	!	!	!	!	!	!	!	!	!	!	!	!	!	!LO:TX:t=P:problem: nad tremolo 6 razy staccato	!	!	!	!	!
2r	.	.	16cc\LL	.	8rc	8ff`</	p	8rc	8aa/	p	2r	.	.	2r	.	.	2r	.	.	2r	.	.	.	2r	.	16cc'\LL	.	8ff`\	.	8aa`\	.
.	.	.	16cc\	.	.	.	.	.	.	.	.	.	.	.	.	.	.	.	.	.	.	.	.	.	.	16cc'\	.	.	.	.	.
.	.	.	16cc\	.	16r	8ryy	.	16r	8ryy	.	.	.	.	.	.	.	.	.	.	.	.	.	.	.	.	16cc'\	.	8r	.	8r	.
.	.	.	16cc\	.	16f`</	.	.	16a`\	.	.	.	.	.	.	.	.	.	.	.	.	.	.	.	.	.	16cc'\	.	.	.	.	.
.	.	.	16cc\	.	8g`</	4ryy	.	8b-`\	4ryy	.	.	.	.	.	.	.	.	.	.	.	.	.	.	.	.	16cc'\	.	4r	.	4r	.
.	.	.	16cc\	.	.	.	.	.	.	.	.	.	.	.	.	.	.	.	.	.	.	.	.	.	.	16cc'\	.	.	.	.	.
.	.	.	16cc\	.	16r	.	.	16r	.	.	.	.	.	.	.	.	.	.	.	.	.	.	.	.	.	16cc'\	.	.	.	.	.
.	.	.	16cc\JJ	.	16en`</	.	.	16g`/	.	.	.	.	.	.	.	.	.	.	.	.	.	.	.	.	.	16cc'\JJ	.	.	.	.	.
=26	=26	=26	=26	=26	=26	=26	=26	=26	=26	=26	=26	=26	=26	=26	=26	=26	=26	=26	=26	=26	=26	=26	=26	=26	=26	=26	=26	=26	=26	=26	=26
!	!	!	!LO:TX:t=P:problem: nad tremolem 8 razy spiccato	!	!	!	!	!	!	!	!	!	!	!	!	!	!	!	!	!	!	!	!	!	!	!	!	!	!	!	!
!	!	!	!	!	!	!	!	!	!	!	!	!	!	!	!	!	!	!	!	!	!	!	!	!	!	!LO:TX:t=P:problem: nad tremolo 6 razy staccato	!	!	!	!	!
2r	.	.	16cc\LL	.	8f`</	8reee	.	8a/	8reee	.	2r	.	.	2r	.	.	2r	.	.	2r	.	.	.	2r	.	16cc'\LL	.	8r	.	8r	.
.	.	.	16cc\	.	.	.	.	.	.	.	.	.	.	.	.	.	.	.	.	.	.	.	.	.	.	16cc'\	.	.	.	.	.
.	.	.	16cc\	.	16r	8rdd	.	16r	8rdd	.	.	.	.	.	.	.	.	.	.	.	.	.	.	.	.	16cc'\	.	16r	.	16r	.
.	.	.	16cc\	.	16ff/	.	.	16aa/	.	.	.	.	.	.	.	.	.	.	.	.	.	.	.	.	.	16cc'\	.	16ff\	.	16aa\	.
.	.	.	16cc\	.	16gg/LL	4rdd	.	16bb-/LL	4rdd	.	.	.	.	.	.	.	.	.	.	.	.	.	.	.	.	16cc'\	.	16gg`\LL	.	16bb-`\LL	.
.	.	.	16cc\	.	16gg/JJ	.	.	16bb-/JJ	.	.	.	.	.	.	.	.	.	.	.	.	.	.	.	.	.	16cc'\	.	16gg`\JJ	.	16bb-`\JJ	.
.	.	.	16cc\	.	16een/LL	.	.	(<16gg/LL	.	.	.	.	.	.	.	.	.	.	.	.	.	.	.	.	.	16cc'\	.	16eeXt\LL	.	16ggT\LL	.
.	.	.	16cc\JJ	.	32dd/L	.	.	32ff/L	.	.	.	.	.	.	.	.	.	.	.	.	.	.	.	.	.	16cc'\JJ	.	(32dd\L	.	(32ff\L	.
.	.	.	.	.	32ee/JJJ	.	.	32gg/JJJ)	.	.	.	.	.	.	.	.	.	.	.	.	.	.	.	.	.	.	.	32ee\JJJ)	.	32gg\JJJ)	.
=27	=27	=27	=27	=27	=27	=27	=27	=27	=27	=27	=27	=27	=27	=27	=27	=27	=27	=27	=27	=27	=27	=27	=27	=27	=27	=27	=27	=27	=27	=27	=27
!	!	!	!LO:TX:t=P:problem: nad tremolem 8 razy spiccato	!	!	!	!	!	!	!	!	!	!	!	!	!	!	!	!	!	!	!	!	!	!	!	!	!	!	!	!
!	!	!	!	!	!	!	!	!	!	!	!	!	!	!	!	!	!	!	!	!	!	!	!	!	!	!LO:TX:t=P:problem: nad tremolo 7 razy staccato	!	!	!	!	!
2r	.	.	16cc\LL	.	8ff/	8rdd	.	8rc	8aa/	.	2r	.	.	2r	.	.	2r	.	.	2r	.	.	.	2r	.	16cc'\LL	.	8ff`\	.	8aa\	.
.	.	.	16cc\	.	.	.	.	.	.	.	.	.	.	.	.	.	.	.	.	.	.	.	.	.	.	16cc'\	.	.	.	.	.
.	.	.	16cc\	.	16r	8rddyy	.	16r	8ryy	.	.	.	.	.	.	.	.	.	.	.	.	.	.	.	.	16cc'\	.	8r	.	8r	.
!	!	!	!	!	!	!	!	!	!	!LO:DY:b:t=pia	!	!	!	!	!	!	!	!	!	!	!	!	!	!	!	!	!	!	!	!	!
.	.	.	16cc\	.	16f`</	.	.	16a/	.	p	.	.	.	.	.	.	.	.	.	.	.	.	.	.	.	16cc'\	.	.	.	.	.
.	.	.	16cc\	.	16g`</LL	4rddyy	.	16b-\LL	4ryy	.	.	.	.	.	.	.	.	.	.	.	.	.	.	.	.	16cc'\	.	4r	.	4r	.
.	.	.	16cc\	.	16g`</JJ	.	.	16b-\JJ	.	.	.	.	.	.	.	.	.	.	.	.	.	.	.	.	.	16cc'\	.	.	.	.	.
.	.	.	.	.	16qqf/	.	.	8qqa/	.	.	.	.	.	.	.	.	.	.	.	.	.	.	.	.	.	.	.	.	.	.	.
.	.	.	16cc\	.	(16en/LL	.	.	(16g/LL	.	.	.	.	.	.	.	.	.	.	.	.	.	.	.	.	.	16cc'\	.	.	.	.	.
.	.	.	16cc\JJ	.	32d/L	.	.	32f/L	.	.	.	.	.	.	.	.	.	.	.	.	.	.	.	.	.	16cc'\JJ	.	.	.	.	.
.	.	.	.	.	32e/JJJ)	.	.	32g/JJJ)	.	.	.	.	.	.	.	.	.	.	.	.	.	.	.	.	.	.	.	.	.	.	.
*	*	*	*	*	*	*	*	*	*	*	*	*	*	*	*	*	*	*	*	*	*	*	*	*	*	*Xtremolo	*	*	*	*	*
*	*	*	*Xtremolo	*	*	*	*	*	*	*	*	*	*	*	*	*	*	*	*	*	*	*	*	*	*	*	*	*	*	*	*
*	*	*	*	*	*v	*v	*	*	*	*	*	*	*	*	*	*	*	*	*	*	*	*	*	*	*	*	*	*	*	*	*
*	*	*	*	*	*	*	*v	*v	*	*	*	*	*	*	*	*	*	*	*	*	*	*	*	*	*	*	*	*	*	*
!LO:LB:g=original	!	!	!	!	!	!	!	!LO:LB:g=original	!	!	!	!	!	!	!	!	!	!	!	!	!	!	!	!	!	!	!LO:LB:g=original	!	!
=28	=28	=28	=28	=28	=28	=28	=28	=28	=28	=28	=28	=28	=28	=28	=28	=28	=28	=28	=28	=28	=28	=28	=28	=28	=28	=28	=28	=28	=28
!	!	!	!	!LO:DY:b:t=fort	!	!LO:DY:b:t=forto	!	!LO:DY:b:t=forto	!	!	!	!	!	!	!	!	!	!	!	!	!	!	!	!	!	!	!	!	!
!	!	!LO:DY:b:t=forto	!	!	!	!	!	!	!	!	!	!	!	!	!	!	!	!	!	!	!	!	!	!	!LO:DY:b:t=fort	!	!LO:DY:b:t=fort	!	!LO:DY:b:t=fort
16F\LL	8 3	f	32f\LLL	f	32a`/LLL	f	(16f/LL	f	(4.F\	no-	ſit	4.c\	no-	ſit	4.a\	no-	ſit	4.ff\	no-	ſit	.	8.f/L	.	8.cc\L	f	4.a\	f	4.ff\	f
.	.	.	32f\	.	32a`/	.	.	.	.	.	.	.	.	.	.	.	.	.	.	.	.	.	.	.	.	.	.	.	.
16F\	.	.	32a\	.	32cc`/	.	32g/L	.	.	.	.	.	.	.	.	.	.	.	.	.	.	.	.	.	.	.	.	.	.
.	.	.	32a\JJJ	.	32cc`/JJJ	.	32a/JJJ	.	.	.	.	.	.	.	.	.	.	.	.	.	.	.	.	.	.	.	.	.	.
16F\	.	.	32f\LLL	.	32a`/LLL	.	32b-\LLL	.	.	.	.	.	.	.	.	.	.	.	.	.	.	.	.	.	.	.	.	.	.
.	.	.	32f\	.	32a`/	.	32cc\	.	.	.	.	.	.	.	.	.	.	.	.	.	.	.	.	.	.	.	.	.	.
16F\JJ	.	.	32a\	.	32cc`/	.	32dd\	.	.	.	.	.	.	.	.	.	.	.	.	.	.	16f/Jk	.	16cc\Jk	.	.	.	.	.
.	.	.	32a\JJJ	.	32cc`/JJJ	.	32een\JJJ)	.	.	.	.	.	.	.	.	.	.	.	.	.	.	.	.	.	.	.	.	.	.
!	!	!	!	!	!LO:LB:g=original	!	!	!	!	!	!	!	!	!	!	!	!	!	!	!	!	!	!	!	!	!	!	!	!
16F\LL	.	.	32f\LLL	.	32a`\LLL	.	(32ff\LLL	.	.	.	.	.	.	.	.	.	.	.	.	.	.	8f/L	.	8cc\L	.	.	.	.	.
.	.	.	32f\	.	32a`\	.	32gg\	.	.	.	.	.	.	.	.	.	.	.	.	.	.	.	.	.	.	.	.	.	.
16F\	.	.	32a\	.	32cc`\	.	32aa\	.	.	.	.	.	.	.	.	.	.	.	.	.	.	.	.	.	.	.	.	.	.
.	.	.	32a\JJJ	.	32cc`\JJJ	.	32gg\JJJ)	.	.	.	.	.	.	.	.	.	.	.	.	.	.	.	.	.	.	.	.	.	.
!	!	!	!LO:LB:g=original	!	!	!	!	!	!	!	!	!	!	!	!	!	!	!	!	!	!	!	!	!	!	!	!	!	!
16A\	-5 3	.	32e-X`\LLL	.	32a`\LLL	.	(32ff\LLL	.	8A\)	.	.	8f\	.	.	8cc\	.	.	8ee-X\	.	.	.	8f/J	.	8cc\J	.	8cc\	.	8ee-X\	.
.	.	.	32e-`\	.	32a`\	.	32ee-X\	.	.	.	.	.	.	.	.	.	.	.	.	.	.	.	.	.	.	.	.	.	.
16A\JJ	.	.	(32f`\	.	32cc`\	.	32dd\	.	.	.	.	.	.	.	.	.	.	.	.	.	.	.	.	.	.	.	.	.	.
.	.	.	32f`\JJJ)	.	32cc`\JJJ	.	32cc#X\JJJ)	.	.	.	.	.	.	.	.	.	.	.	.	.	.	.	.	.	.	.	.	.	.
!	!	!	!	!	!	!	!	!	!	!	!	!	!	!	!	!	!	!	!	!	!	!	!	!	!	!	!	!LO:LB:g=original	!
=29	=29	=29	=29	=29	=29	=29	=29	=29	=29	=29	=29	=29	=29	=29	=29	=29	=29	=29	=29	=29	=29	=29	=29	=29	=29	=29	=29	=29	=29
!	!	!	!	!	!	!LO:DY:b:t=pia	!	!LO:DY:b:t=pia	!	!	!	!	!	!	!	!	!	!	!	!	!	!	!	!	!	!	!	!	!
8B-\	3	.	8f\	.	16b-`\LL	p	16dd`\LL	p	8B-\	-vo	et	8f\	-vo	et	8b-\	-vo	et	8dd\	-vo	et	.	8b-\	.	8dd\	.	8b-\	.	8dd\	.
.	.	.	.	.	16b-`\	.	16dd`\	.	.	.	.	.	.	.	.	.	.	.	.	.	.	.	.	.	.	.	.	.	.
8r	.	.	8r	.	16a`\	.	16ff#X`\	.	8r	.	.	8r	.	.	8r	.	.	8r	.	.	.	8r	.	8r	.	8r	.	8r	.
.	.	.	.	.	16a`\JJ	.	16ff#`\JJ	.	.	.	.	.	.	.	.	.	.	.	.	.	.	.	.	.	.	.	.	.	.
4r	.	.	4r	.	16b-`/LL	.	16gg`\LL	.	4r	.	.	4r	.	.	4r	.	.	4r	.	.	.	4r	.	4r	.	4r	.	4r	.
.	.	.	.	.	16b-`/	.	16gg`\	.	.	.	.	.	.	.	.	.	.	.	.	.	.	.	.	.	.	.	.	.	.
.	.	.	.	.	16g`/	.	16bb-`\	.	.	.	.	.	.	.	.	.	.	.	.	.	.	.	.	.	.	.	.	.	.
.	.	.	.	.	16g`/JJ	.	16bb-`\JJ	.	.	.	.	.	.	.	.	.	.	.	.	.	.	.	.	.	.	.	.	.	.
!	!	!	!	!	!	!	!	!	!	!	!	!	!	!	!	!	!	!LO:LB:g=original	!	!	!	!	!	!	!	!	!	!	!
!	!	!	!	!	!	!	!	!	!	!	!	!LO:LB:g=original	!	!	!	!	!	!	!	!	!	!	!	!	!	!	!	!	!
=30	=30	=30	=30	=30	=30	=30	=30	=30	=30	=30	=30	=30	=30	=30	=30	=30	=30	=30	=30	=30	=30	=30	=30	=30	=30	=30	=30	=30	=30
!	!	!	!	!	!	!LO:DY:b:t=fort	!	!LO:DY:b:t=fort	!	!	!	!	!	!	!	!	!	!	!	!	!	!	!	!	!	!	!	!	!
16F\LL	3	.	16c\LL	.	16cc`\LL	f	16aa`\LL	f	8F\	ce-	be-	8c\	ce-	be-	8a\	ce-	be-	8ff\	ce-	be-	.	8f/L	.	8cc\L	.	8a\L	.	8ff\L	.
!	!	!	!	!	!LO:TX:a:t=|&colon;fortproblem	!	!	!	!	!	!	!	!	!	!	!	!	!	!	!	!	!	!	!	!	!	!	!	!
16F\	.	.	16c\	.	16a`\	.	16ff`\	.	.	.	.	.	.	.	.	.	.	.	.	.	.	.	.	.	.	.	.	.	.
16B-\	3	.	16d\	.	16b-`\	.	16dd`\	.	8B-\	-dat	-ne-	8d\	-dat	-ne-	8b-\	-dat	-ne-	8gg\	-dat	-ne-	.	8b-/J	.	8dd\	.	8b-\	.	(16dd\L	.
16B-\JJ	.	.	16d\JJ	.	16g`\JJ	.	16b-`\JJ	.	.	.	.	.	.	.	.	.	.	.	.	.	.	.	.	.	.	.	.	16gg\JJ)	.
!LO:TX:t=P:problem:mixed beam	!	!	!	!	!	!	!	!	!	!	!	!	!	!	!	!	!	!	!	!	!	!	!	!	!	!	!	!	!
16c\LL	6 4	.	8c\L	.	8f/L	.	8a/L	.	8c\	ri-	-dic-	8c\	ri-	-dic-	8a\	ri-	-dic-	8ff\	ri-	-dic-	.	8cc\L	.	8cc\	.	8a\	.	8ff\L	.
16c\	.	.	.	.	.	.	.	.	.	.	.	.	.	.	.	.	.	.	.	.	.	.	.	.	.	.	.	.	.
16C/	5 n	.	8cc\J	.	8en/J	.	8g/J	.	8C/	-tu-	-ti-	8c\	-tu-	-ti-	8g\	-tu-	-ti-	8een\	-tu-	-ti-	.	8cc\J	.	8cc\J	.	8g\J	.	8eeX\J	.
16C/JJ	.	.	.	.	.	.	.	.	.	.	.	.	.	.	.	.	.	.	.	.	.	.	.	.	.	.	.	.	.
!	!	!	!	!	!	!	!	!	!	!	!	!	!	!	!LO:LB:g=original	!	!	!	!	!	!	!	!	!	!	!	!	!	!
=31	=31	=31	=31	=31	=31	=31	=31	=31	=31	=31	=31	=31	=31	=31	=31	=31	=31	=31	=31	=31	=31	=31	=31	=31	=31	=31	=31	=31	=31
!	!	!	!	!	!LO:TX:t=P:problem:mixed beam	!	!	!	!	!	!	!	!	!	!	!	!	!	!	!	!	!	!	!	!	!	!	!	!
.	.	.	.	.	.	.	8qqg/	.	.	.	.	.	.	.	.	.	.	.	.	.	.	.	.	.	.	.	.	.	.
8F\L	3	.	8.cc\L	.	8.f/L	.	4f/	.	4F\	-i	-o	4c\	-i	-o	4a\	-i	-o	4ff\	-i	-o	.	4f/	.	4cc\	.	4a\	.	4ff\	.
8FF/J	.	.	.	.	.	.	.	.	.	.	.	.	.	.	.	.	.	.	.	.	.	.	.	.	.	.	.	.	.
.	.	.	16e-X`\Jk	.	16cc`\Jk	.	.	.	.	.	.	.	.	.	.	.	.	.	.	.	.	.	.	.	.	.	.	.	.
4r	.	.	(16e-\LL	.	(16cc\LL	.	4r	.	4r	.	.	4r	.	.	4r	.	.	4r	.	.	.	4r	.	4r	.	4r	.	4r	.
.	.	.	16d\)	.	16b-\)	.	.	.	.	.	.	.	.	.	.	.	.	.	.	.	.	.	.	.	.	.	.	.	.
.	.	.	(16d\	.	(16b-\	.	.	.	.	.	.	.	.	.	.	.	.	.	.	.	.	.	.	.	.	.	.	.	.
.	.	.	16c\JJ)	.	16a\JJ)	.	.	.	.	.	.	.	.	.	.	.	.	.	.	.	.	.	.	.	.	.	.	.	.
=32	=32	=32	=32	=32	=32	=32	=32	=32	=32	=32	=32	=32	=32	=32	=32	=32	=32	=32	=32	=32	=32	=32	=32	=32	=32	=32	=32	=32	=32
!LO:TX:b:i:t=Solo	!	!	!	!	!	!	!	!	!LO:TX:a:t=12	!	!	!LO:TX:a:t=12	!	!	!	!	!	!	!	!	!	!	!	!	!	!LO:TX:a:t=3	!	!LO:TX:a:t=3	!
!	!	!	!	!	!	!	!	!	!	!	!	!	!	!	!	!	!	!LO:TX:t=P:problem: "dolce" i "pia" dopisane na pięciolinii czerwonym tuszem	!	!	!LO:DY:b:t=pia	!	!	!	!	!	!	!	!
!	!	!	!	!LO:DY:b:t=pia	!	!LO:DY:b:t=pia	!	!LO:DY:b:t=pia	!	!	!	!	!	!	!	!	!	!	!	!	!	!	!	!	!	!	!	!	!
!	!	!	!	!	!	!	!	!	!	!	!	!	!	!	!	!	!	!	!	!	!	!	!LO:DY:b:t=pia	!	!LO:DY:b:t=pia	!	!	!	!
4BB-/	5_ 3_	.	2f\	p	(4.dd\	p	(4.ff\	p	2r	.	.	2r	.	.	4.dd\	pras-	pro-	4.ff\	pras-	pro-	p	(2d/	p	2b-\	p	2r	.	2r	.
!	!	!	!	!	!	!	!	!	!	!	!	!	!	!	!	!	!	!LO:TX:b:i:t=dolce	!	!	!	!	!	!	!	!	!	!	!
4B-\	6 4	.	.	.	.	.	.	.	.	.	.	.	.	.	.	.	.	.	.	.	.	.	.	.	.	.	.	.	.
!	!	!	!	!	!	!	!LO:TX:b:t=vox	!	!	!	!	!	!	!	!	!	!	!	!	!	!	!	!	!	!	!	!	!	!
.	.	.	.	.	8ee-X\)	.	8gg\)	.	.	.	.	.	.	.	8ee-\	-tet	-ce-	8gg\	-tet	-ce-	.	.	.	.	.	.	.	.	.
=33	=33	=33	=33	=33	=33	=33	=33	=33	=33	=33	=33	=33	=33	=33	=33	=33	=33	=33	=33	=33	=33	=33	=33	=33	=33	=33	=33	=33	=33
4F\	7 5	.	2f\	.	(8dd\L	.	(8ff\L	.	2r	.	.	2r	.	.	(8dd\L	fi-	-den-	(8ff\L	fi-	-den-	.	2f/	.	2cc\	.	2r	.	2r	.
.	.	.	.	.	8cc\J)	.	8ee-X\J	.	.	.	.	.	.	.	8cc\J)	.	.	8ee-X\J)	.	.	.	.	.	.	.	.	.	.	.
4FF/	5 3	.	.	.	4a/	.	4cc\)	.	.	.	.	.	.	.	4a\	-des	-ti	4cc\	-des	-ti	.	.	.	.	.	.	.	.	.
=34	=34	=34	=34	=34	=34	=34	=34	=34	=34	=34	=34	=34	=34	=34	=34	=34	=34	=34	=34	=34	=34	=34	=34	=34	=34	=34	=34	=34	=34
4BB-/	3	.	4f\	.	4b-\	.	4dd\	.	2r	.	.	2r	.	.	(4b-\	ſu-	ab	(4dd\	ſu-	ab	.	4b-/)	.	4dd\	.	2r	.	2r	.
8E-\L	.	.	8g\L	.	(16a-X/LL	.	(16ee-\LL	.	.	.	.	.	.	.	16a-X\LL	.	.	16ee-\LL	.	.	.	4r	.	4r	.	.	.	.	.
.	.	.	.	.	16g/	.	16dd\	.	.	.	.	.	.	.	16g\JJ)	.	.	16dd\JJ)	.	.	.	.	.	.	.	.	.	.	.
8En\J	.	.	8f\J	.	(16f/)	.	16cc\	.	.	.	.	.	.	.	16f\LL	-ple-	u-	16cc\LL	-ple-	u-	.	.	.	.	.	.	.	.	.
.	.	.	.	.	16e-/JJ)	.	16b-\JJ)	.	.	.	.	.	.	.	16e-\JJ	.	.	16b-\JJ	.	.	.	.	.	.	.	.	.	.	.
!	!	!	!	!	!	!	!LO:LB:g=original	!	!	!	!	!	!	!	!	!	!	!	!	!	!	!	!	!	!	!	!	!	!
!	!	!	!	!	!	!	!	!	!	!	!	!	!	!	!	!	!	!	!	!	!	!	!	!LO:LB:g=original	!	!	!	!	!
=35	=35	=35	=35	=35	=35	=35	=35	=35	=35	=35	=35	=35	=35	=35	=35	=35	=35	=35	=35	=35	=35	=35	=35	=35	=35	=35	=35	=35	=35
!LO:TX:t=P:problem:mixed beam	!	!	!	!	!	!	!	!	!	!	!	!	!	!	!	!	!	!	!	!	!	!	!	!	!	!	!	!	!
8F\L	3	.	4f\	.	(4d/	.	(<4b-\	.	2r	.	.	2r	.	.	4d\	-men-	-tro-	4b-\	-men-	-tro-	.	(4b-\	.	(4dd\	.	4r	.	4r	.
8C\	.	.	.	.	.	.	.	.	.	.	.	.	.	.	.	.	.	.	.	.	.	.	.	.	.	.	.	.	.
.	.	.	.	.	.	.	16qqa/LL	.	.	.	.	.	.	.	.	.	.	16qqa/LL	.	.	.	.	.	.	.	.	.	.	.
.	.	.	.	.	.	.	16qqb-/JJ	.	.	.	.	.	.	.	.	.	.	16qqb-/JJ	.	.	.	.	.	.	.	.	.	.	.
8FF/J	.	.	8f\	.	8c/)	.	8a\)	.	.	.	.	.	.	.	8c\	-tum	-que	8a\	-tum	-que	.	8f/)	.	8cc\)	.	8r	.	8r	.
!	!	!	!	!	!	!	!	!	!	!	!	!	!	!	!	!	!	!	!	!	!	!	!	!	!	!LO:TX:b:i:t=dolce	!	!LO:TX:b:i:t=dolce	!
8r	.	.	8r	.	8r	.	8r	.	.	.	.	.	.	.	8r	.	.	8r	.	.	.	8r	.	8r	.	(16b-\LL	.	(16dd\LL	.
.	.	.	.	.	.	.	.	.	.	.	.	.	.	.	.	.	.	.	.	.	.	.	.	.	.	16cc\JJ)	.	16ee-\JJ)	.
!	!	!	!	!	!	!	!	!	!	!	!	!	!	!	!	!	!	!	!	!	!	!LO:LB:g=original	!	!	!	!	!	!	!
=36	=36	=36	=36	=36	=36	=36	=36	=36	=36	=36	=36	=36	=36	=36	=36	=36	=36	=36	=36	=36	=36	=36	=36	=36	=36	=36	=36	=36	=36
*	*	*	*	*	*	*	*^	*	*	*	*	*	*	*	*	*	*	*	*	*	*	*	*	*	*	*	*	*	*
!LO:TX:a:t=4	!	!	!	!	!LO:TX:a:i:t=dolce	!	!LO:TX:b:i:t=dolce	!	!	!	!	!	!	!	!	!LO:TX:a:t=6	!	!	!LO:TX:a:t=4	!	!	!	!	!	!	!	!	!	!	!
2r	.	.	8r	.	(4.d/	.	4.f/	4.ff/	.	2r	.	.	2r	.	.	2r	.	.	2r	.	.	.	8r	.	[2f/	.	(4.dd\	.	(4.ff\	.
!	!	!	!	!LO:DY:b:t=m fort	!	!	!	!	!	!	!	!	!	!	!	!	!	!	!	!	!	!	!	!	!	!	!	!	!	!
!	!	!	!	!	!	!	!	!	!	!	!	!	!	!	!	!	!	!	!	!	!	!	!	!LO:DY:b:t=fort	!	!	!	!	!	!
.	.	.	8B-`/L	mf	.	.	.	.	.	.	.	.	.	.	.	.	.	.	.	.	.	.	8B-/L	f	.	.	.	.	.	.
.	.	.	8d`/	.	.	.	.	.	.	.	.	.	.	.	.	.	.	.	.	.	.	.	8d/	.	.	.	.	.	.	.
.	.	.	8B-`/J	.	8e-/)	.	8g/	8gg/	.	.	.	.	.	.	.	.	.	.	.	.	.	.	8B-/J	.	.	.	8ee-X`\)	.	8gg\)	.
=37	=37	=37	=37	=37	=37	=37	=37	=37	=37	=37	=37	=37	=37	=37	=37	=37	=37	=37	=37	=37	=37	=37	=37	=37	=37	=37	=37	=37	=37	=37
2r	.	.	4F/	.	(8d/L	.	(8f/L	8ff/L	.	2r	.	.	2r	.	.	2r	.	.	2r	.	.	.	4.F/	.	4.f/]	.	(8dd\L	.	(8ff\L	.
.	.	.	.	.	8c/J)	.	8e-/J)	8ee-/J	.	.	.	.	.	.	.	.	.	.	.	.	.	.	.	.	.	.	8cc\J)	.	8ee-X\J)	.
.	.	.	8F/L	.	8A/	.	8c/	8cc/	.	.	.	.	.	.	.	.	.	.	.	.	.	.	.	.	.	.	8a\	.	8cc\	.
.	.	.	8F/J	.	16r	.	16r	16r	.	.	.	.	.	.	.	.	.	.	.	.	.	.	8F/	.	8f/	.	16r	.	16r	.
.	.	.	.	.	16A/	.	16c/	16cc/	.	.	.	.	.	.	.	.	.	.	.	.	.	.	.	.	.	.	16a\	.	16cc`\	.
!	!	!	!LO:LB:g=original	!	!	!	!	!	!	!	!	!	!	!	!	!	!	!	!	!	!	!	!	!	!	!	!	!	!	!
=38	=38	=38	=38	=38	=38	=38	=38	=38	=38	=38	=38	=38	=38	=38	=38	=38	=38	=38	=38	=38	=38	=38	=38	=38	=38	=38	=38	=38	=38	=38
2r	.	.	4B-/	.	(8.B-M/L	.	8.d/L	8.dd/L	.	2r	.	.	2r	.	.	2r	.	.	2r	.	.	.	4B-/	.	4f/	.	8.b-M\L	.	8.ddm\L	.
.	.	.	.	.	32A/LL	.	32c/LL	32cc/LL	.	.	.	.	.	.	.	.	.	.	.	.	.	.	.	.	.	.	32a\LL	.	(32cc\LL	.
.	.	.	.	.	32B-/JJJ)	.	32d/JJJ	32dd/JJJ	.	.	.	.	.	.	.	.	.	.	.	.	.	.	.	.	.	.	32b-\JJJ	.	32dd\JJJ)	.
.	.	.	8E-`/L	.	(16d/LL	.	(16f/LL	16ff/LL	.	.	.	.	.	.	.	.	.	.	.	.	.	.	4r	.	4r	.	(16dd\LL	.	(16ff\LL	.
.	.	.	.	.	16c/)	.	16e-/)	16ee-/	.	.	.	.	.	.	.	.	.	.	.	.	.	.	.	.	.	.	16cc\)	.	16ee-\)	.
.	.	.	8En`/J	.	(16c/	.	(16e-/	16ee-/	.	.	.	.	.	.	.	.	.	.	.	.	.	.	.	.	.	.	(16cc\	.	(16ee-\	.
.	.	.	.	.	16B-/JJ)	.	16d/JJ)	16dd/JJ	.	.	.	.	.	.	.	.	.	.	.	.	.	.	.	.	.	.	16b-\JJ)	.	16dd\JJ)	.
!	!	!	!	!	!LO:LB:g=original	!	!	!	!	!	!	!	!	!	!	!	!	!	!	!	!	!	!	!	!	!	!	!	!	!
!	!	!	!	!	!	!	!	!	!	!	!	!	!	!	!	!	!	!	!	!	!	!	!	!	!	!	!LO:LB:g=original	!	!	!
=39	=39	=39	=39	=39	=39	=39	=39	=39	=39	=39	=39	=39	=39	=39	=39	=39	=39	=39	=39	=39	=39	=39	=39	=39	=39	=39	=39	=39	=39	=39
2r	.	.	8F`/L	.	(4B-/	.	(4d/	4dd/	.	2r	.	.	2r	.	.	2r	.	.	2r	.	.	.	8F/L	.	8f/L	.	4b-\	.	4ddt\	.
.	.	.	8f`\J	.	.	.	.	.	.	.	.	.	.	.	.	.	.	.	.	.	.	.	8f/	.	8f/	.	.	.	.	.
.	.	.	.	.	.	.	.	.	.	.	.	.	.	.	.	.	.	.	.	.	.	.	.	.	.	.	(<16qqa/LL	.	(<16qqcc/LL	.
.	.	.	.	.	.	.	.	.	.	.	.	.	.	.	.	.	.	.	.	.	.	.	.	.	.	.	16qqb-/JJ	.	16qqdd/JJ	.
.	.	.	16f`\LL	.	8A/)	.	8c/)	8cc/	.	.	.	.	.	.	.	.	.	.	.	.	.	.	8F/J	.	8f/J	.	8a\)	.	8cc\)	.
.	.	.	16e-`\	.	.	.	.	.	.	.	.	.	.	.	.	.	.	.	.	.	.	.	.	.	.	.	.	.	.	.
.	.	.	16d`\	.	8r	.	8r	8r	.	.	.	.	.	.	.	.	.	.	.	.	.	.	8r	.	8r	.	8r	.	8r	.
.	.	.	16c`\JJ	.	.	.	.	.	.	.	.	.	.	.	.	.	.	.	.	.	.	.	.	.	.	.	.	.	.	.
*	*	*	*	*	*	*	*v	*v	*	*	*	*	*	*	*	*	*	*	*	*	*	*	*	*	*	*	*	*	*	*
!	!	!	!	!	!	!	!	!	!	!	!	!	!	!	!	!	!	!	!LO:LB:g=original	!	!	!	!	!	!	!	!	!	!
=40	=40	=40	=40	=40	=40	=40	=40	=40	=40	=40	=40	=40	=40	=40	=40	=40	=40	=40	=40	=40	=40	=40	=40	=40	=40	=40	=40	=40	=40
!	!	!	!	!	!	!	!	!	!	!	!	!	!	!	!	!	!	!	!	!	!LO:DY:a:t=pia	!LO:TX:a:t=1	!	!LO:TX:a:t=1	!	!LO:TX:a:t=4	!	!LO:TX:a:t=4	!
!	!	!	!	!	!	!	!	!	!	!	!	!	!	!	!	!	!	!LO:TX:t=P:problem: "pia" dopisane na pięciolinii czerwonym tuszem	!	!	!	!	!	!	!	!	!	!	!
!	!	!	!	!	!	!LO:DY:b:t=piano	!	!LO:DY:b:t=pia	!	!	!	!	!	!	!	!	!	!	!	!	!	!	!	!	!	!	!	!	!
8r	.	.	8r	.	4d/	p	4b-\	p	2r	.	.	2r	.	.	2r	.	.	(4b-\	ſen-	com-	p	2r	.	2r	.	2r	.	2r	.
!	!	!LO:DY:b:t=pia	!	!LO:DY:b:t=pia	!	!	!	!	!	!	!	!	!	!	!	!	!	!	!	!	!	!	!	!	!	!	!	!	!
8BB-\L	9 8	p	8B-`\L	p	.	.	.	.	.	.	.	.	.	.	.	.	.	.	.	.	.	.	.	.	.	.	.	.	.
8D\	.	.	8d`\	.	(16f/LL	.	(16dd\LL	.	.	.	.	.	.	.	.	.	.	16dd\LL	.	.	.	.	.	.	.	.	.	.	.
.	.	.	.	.	16e-/)	.	16cc\)	.	.	.	.	.	.	.	.	.	.	16cc\JJ)	.	.	.	.	.	.	.	.	.	.	.
8F\J	5 3	.	8f`\J	.	(16c/	.	16a`\	.	.	.	.	.	.	.	.	.	.	16b-\LL	-su-	-par	.	.	.	.	.	.	.	.	.
.	.	.	.	.	16e-/JJ)	.	16cc`\JJ	.	.	.	.	.	.	.	.	.	.	16cc\JJ	.	.	.	.	.	.	.	.	.	.	.
=41	=41	=41	=41	=41	=41	=41	=41	=41	=41	=41	=41	=41	=41	=41	=41	=41	=41	=41	=41	=41	=41	=41	=41	=41	=41	=41	=41	=41	=41
4B-\	3	.	8f`\	.	8d/L	.	8b-\	.	2r	.	.	2r	.	.	2r	.	.	8b-\	-um	sit	.	8r	.	8r	.	2r	.	2r	.
!	!	!	!	!	!	!	!	!	!	!	!	!	!	!	!	!	!	!	!	!	!	!LO:TX:a:i:t=Solo	!	!LO:TX:a:i:t=Solo	!	!	!	!	!
.	.	.	8r	.	16B-`/L	.	8r	.	.	.	.	.	.	.	.	.	.	8r	.	.	.	16.B-/LL	.	16.B-`/LL	.	.	.	.	.
.	.	.	.	.	16B-`/JJ	.	.	.	.	.	.	.	.	.	.	.	.	.	.	.	.	.	.	.	.	.	.	.	.
.	.	.	.	.	.	.	.	.	.	.	.	.	.	.	.	.	.	.	.	.	.	32B-/JJk	.	32B-`/JJk	.	.	.	.	.
4r	.	.	4r	.	16d`/LL	.	4r	.	.	.	.	.	.	.	.	.	.	4r	.	.	.	16d`/LL	.	16d`/LL	.	.	.	.	.
.	.	.	.	.	16d`/	.	.	.	.	.	.	.	.	.	.	.	.	.	.	.	.	16d`/	.	16d`/	.	.	.	.	.
.	.	.	.	.	16f`/	.	.	.	.	.	.	.	.	.	.	.	.	.	.	.	.	16f`/	.	16f`/	.	.	.	.	.
.	.	.	.	.	16f`/JJ	.	.	.	.	.	.	.	.	.	.	.	.	.	.	.	.	16f`/JJ	.	16f`/JJ	.	.	.	.	.
!LO:LB:g=original	!	!	!	!	!	!	!	!	!	!	!	!	!	!	!	!	!	!	!	!	!	!	!	!	!	!	!	!	!
=42	=42	=42	=42	=42	=42	=42	=42	=42	=42	=42	=42	=42	=42	=42	=42	=42	=42	=42	=42	=42	=42	=42	=42	=42	=42	=42	=42	=42	=42
8r	.	.	8r	.	4b-\	.	4dd\	.	2r	.	.	2r	.	.	(4b-\	ſen-	Com-	(4dd\	ſen-	Com-	.	8b-\	.	8b-\	.	2r	.	2r	.
8BB-/L	3	.	8B-`\L	.	.	.	.	.	.	.	.	.	.	.	.	.	.	.	.	.	.	8r	.	8r	.	.	.	.	.
8D/	.	.	8d`\	.	(16dd\LL	.	(16ff\LL	.	.	.	.	.	.	.	16dd\LL	.	.	16ff\LL	.	.	.	4r	.	4r	.	.	.	.	.
.	.	.	.	.	16ee-\)	.	16gg\)	.	.	.	.	.	.	.	16ee-\JJ)	.	.	16gg\JJ)	.	.	.	.	.	.	.	.	.	.	.
8F/J	7 5	.	8f`\J	.	16cc`\	.	16ee-`\	.	.	.	.	.	.	.	16cc\LL	-su-	-par	(16ee-\LL	-su-	-par	.	.	.	.	.	.	.	.	.
.	.	.	.	.	16a`\JJ	.	16cc`\JJ	.	.	.	.	.	.	.	16a\JJ	.	.	16cc\JJ)	.	.	.	.	.	.	.	.	.	.	.
=43	=43	=43	=43	=43	=43	=43	=43	=43	=43	=43	=43	=43	=43	=43	=43	=43	=43	=43	=43	=43	=43	=43	=43	=43	=43	=43	=43	=43	=43
!	!	!	!	!	!LO:TX:t=P:problem:mixed beam	!	!	!	!	!	!	!	!	!	!	!	!	!	!	!	!	!	!	!	!	!	!	!	!
4B-\	3	.	8f\	.	8b-\L	.	8dd`\	.	2r	.	.	2r	.	.	8b-\	-um	sit	8dd\	-um	sit	.	8r	.	8r	.	2r	.	2r	.
!	!	!	!	!	!	!	!	!	!	!	!	!	!	!	!	!	!	!	!	!	!	!LO:TX:a:i:t=Solo	!	!	!	!	!	!	!
.	.	.	8r	.	16B-`/L	.	8r	.	.	.	.	.	.	.	8r	.	.	8r	.	.	.	16.B-`/LL	.	16.B-`/LL	.	.	.	.	.
.	.	.	.	.	16B-`/JJ	.	.	.	.	.	.	.	.	.	.	.	.	.	.	.	.	.	.	.	.	.	.	.	.
.	.	.	.	.	.	.	.	.	.	.	.	.	.	.	.	.	.	.	.	.	.	32B-`/JJk	.	32B-`/JJk	.	.	.	.	.
4r	.	.	4r	.	16d`/LL	.	4r	.	.	.	.	.	.	.	4r	.	.	4r	.	.	.	16d`/LL	.	16d`/LL	.	.	.	.	.
.	.	.	.	.	16d`/	.	.	.	.	.	.	.	.	.	.	.	.	.	.	.	.	16d`/	.	16d`/	.	.	.	.	.
.	.	.	.	.	16f`/	.	.	.	.	.	.	.	.	.	.	.	.	.	.	.	.	16f`/	.	16f`/	.	.	.	.	.
.	.	.	.	.	16f`/JJ	.	.	.	.	.	.	.	.	.	.	.	.	.	.	.	.	16f`/JJ	.	16f`/JJ	.	.	.	.	.
!	!	!	!	!	!	!	!	!	!	!	!	!	!	!	!LO:LB:g=original	!	!	!	!	!	!	!	!	!	!	!	!	!	!
!	!	!	!	!	!	!	!LO:LB:g=original	!	!	!	!	!	!	!	!	!	!	!	!	!	!	!	!	!	!	!	!LO:LB:g=original	!	!
=44	=44	=44	=44	=44	=44	=44	=44	=44	=44	=44	=44	=44	=44	=44	=44	=44	=44	=44	=44	=44	=44	=44	=44	=44	=44	=44	=44	=44	=44
!	!	!	!	!	!	!	!	!	!	!	!	!	!	!	!	!	!	!	!	!	!LO:DY:a:t=forlo	!	!	!	!	!	!	!	!
!	!	!	!	!	!	!	!	!	!	!	!	!	!	!	!	!	!	!	!LO:TX:t=P:problem: "forlo" dopisane na pięciolinii czerwonym tuszem	!	!	!	!	!	!	!	!	!	!
!	!	!	!	!	!	!LO:DY:b:t=forto	!	!LO:DY:b:t=forto	!	!	!	!	!	!	!	!	!	!	!	!	!	!	!	!	!	!	!	!	!
!	!	!	!	!LO:DY:b:t=forto	!	!	!	!	!	!	!	!	!	!	!	!	!	!	!	!	!	!	!	!	!	!	!LO:DY:b:t=fort	!	!LO:DY:b:t=forto
!	!	!	!	!	!	!	!	!	!	!	!	!	!	!	!	!	!	!	!	!	!	!	!	!	!LO:DY:b:t=forto	!	!	!	!
!LO:TX:b:i:t=Tutti	!	!	!	!	!	!	!	!	!	!	!	!	!	!	!	!	!	!	!	!	!	!	!LO:DY:a:t=forte	!	!	!	!	!	!
16BB-/LL	8 3	.	16b-\KL	f	4dd\	f	4d\ 4b- 4bb-	f	4B-\	ſen-	Com-	4B-\	ſen-	Com-	4b-\	ſen-	Com-	4dd\	ſen-	Com-	f	4B-/	f	4b-\	f	4dd\	f	4bb-\	f
16BB-/	.	.	8b-\	.	.	.	.	.	.	.	.	.	.	.	.	.	.	.	.	.	.	.	.	.	.	.	.	.	.
16BB-/	.	.	.	.	.	.	.	.	.	.	.	.	.	.	.	.	.	.	.	.	.	.	.	.	.	.	.	.	.
16BB-/JJ	.	.	8b-\	.	.	.	.	.	.	.	.	.	.	.	.	.	.	.	.	.	.	.	.	.	.	.	.	.	.
16D\LL	-5 3	.	.	.	4ff\	.	4aa-X\	.	4D\	-su-	-par	4B-\	-su-	-par	4a-X\	-su-	-par	4ff\	-su-	-par	.	8B-/L	.	8b-\L	.	4dd\	.	4aa-X\	.
16D\	.	.	8b-\	.	.	.	.	.	.	.	.	.	.	.	.	.	.	.	.	.	.	.	.	.	.	.	.	.	.
16D\	.	.	.	.	.	.	.	.	.	.	.	.	.	.	.	.	.	.	.	.	.	8B-/J	.	8b-\J	.	.	.	.	.
16D\JJ	.	.	16b-\Jk	.	.	.	.	.	.	.	.	.	.	.	.	.	.	.	.	.	.	.	.	.	.	.	.	.	.
!	!	!	!	!	!	!	!	!	!LO:LB:g=original	!	!	!	!	!	!	!	!	!	!	!	!	!	!	!	!	!	!	!	!
=45	=45	=45	=45	=45	=45	=45	=45	=45	=45	=45	=45	=45	=45	=45	=45	=45	=45	=45	=45	=45	=45	=45	=45	=45	=45	=45	=45	=45	=45
.	.	.	.	.	.	.	.	.	.	.	.	.	.	.	(<8qqa/	.	.	(<8qqff/	.	.	.	.	.	.	.	.	.	.	.
8E-\L	3	.	8b-\L	.	(16ff\LL	.	(16aa\LL	.	4E-\	-um	sit	4B-\	-um	sit	4g\)	-um	sit	4ee-\)	-um	sit	.	8B-/L	.	8b-\L	.	(16dd\LL	.	(16aa\LL	.
.	.	.	.	.	16ee-\J)	.	16gg\J)	.	.	.	.	.	.	.	.	.	.	.	.	.	.	.	.	.	.	16ee-\J)	.	16gg\J)	.
8E-\J	.	.	8b-\J	.	8ee-\J	.	8gg\J	.	.	.	.	.	.	.	.	.	.	.	.	.	.	8B-/J	.	8b-\J	.	8ee-\J	.	8gg\J	.
4r	.	.	(16b-\LL	.	(16gg\LL	.	(16bb-\LL	.	4r	.	.	4r	.	.	4r	.	.	4r	.	.	.	4r	.	4r	.	4r	.	4r	.
.	.	.	16g\)	.	16ee-\)	.	16gg\)	.	.	.	.	.	.	.	.	.	.	.	.	.	.	.	.	.	.	.	.	.	.
.	.	.	(16b-\	.	(16gg\	.	(16bb-\	.	.	.	.	.	.	.	.	.	.	.	.	.	.	.	.	.	.	.	.	.	.
.	.	.	16g\JJ)	.	16ee-\JJ)	.	16gg\JJ)	.	.	.	.	.	.	.	.	.	.	.	.	.	.	.	.	.	.	.	.	.	.
!	!	!	!	!	!	!	!	!	!	!	!	!	!	!	!	!	!	!	!	!	!	!	!	!LO:LB:g=original	!	!	!	!	!
!	!	!	!	!	!	!	!	!	!	!	!	!	!	!	!	!	!	!	!	!	!	!LO:LB:g=original	!	!	!	!	!	!	!
=46	=46	=46	=46	=46	=46	=46	=46	=46	=46	=46	=46	=46	=46	=46	=46	=46	=46	=46	=46	=46	=46	=46	=46	=46	=46	=46	=46	=46	=46
16D\LL	6	.	8f\L	.	8dd\L	.	(32ff\LLL	.	8D\L	de-	la-	8B-\L	de-	la-	8b-\L	de-	la-	8dd\L	de-	la-	.	8d/	.	8b-\	.	8dd\L	.	8ff\L	.
.	.	.	.	.	.	.	32gg\	.	.	.	.	.	.	.	.	.	.	.	.	.	.	.	.	.	.	.	.	.	.
16D\	.	.	.	.	.	.	32aan\	.	.	.	.	.	.	.	.	.	.	.	.	.	.	.	.	.	.	.	.	.	.
.	.	.	.	.	.	.	32bb-\JJJ)	.	.	.	.	.	.	.	.	.	.	.	.	.	.	.	.	.	.	.	.	.	.
16E-\	6	.	8g\	.	(32ff\LL	.	(32aa\LLL	.	8E-\J	-fec-	-u-	8c\J	-fec-	-u-	16g\L	-fec-	-u-	(32ff\LL	-fec-	-u-	.	8r	.	8r	.	(16ee-\L	.	16gg\L	.
.	.	.	.	.	32ee-\	.	32gg\	.	.	.	.	.	.	.	.	.	.	32ee-\	.	.	.	.	.	.	.	.	.	.	.
16E-\JJ	.	.	.	.	32dd\	.	32ff\	.	.	.	.	.	.	.	16e-\JJ	.	.	32dd\	.	.	.	.	.	.	.	32dd\L	.	32ff\L	.
.	.	.	.	.	32cc\JJJ)	.	32ee-\JJJ)	.	.	.	.	.	.	.	.	.	.	32cc\JJJ)	.	.	.	.	.	.	.	32cc\JJJ)	.	32ee-\JJJ	.
!LO:TX:t=P:problem:mixed beam	!	!	!	!	!	!	!	!	!	!	!	!	!	!	!	!	!	!	!	!	!	!	!	!	!	!	!	!	!
16F\LL	4	.	8f\	.	8b-\L	.	8dd\L	.	8F\	-tu-	-da-	8d\	-tu-	-da-	8f\	-tu-	-da-	8b-\	-tu-	-da-	.	8b-\L	.	8dd\L	.	8b-\L	.	8dd\L	.
16F\	.	.	.	.	.	.	.	.	.	.	.	.	.	.	.	.	.	.	.	.	.	.	.	.	.	.	.	.	.
16FF/	3	.	8f\J	.	8an\J	.	8cc\J	.	8F\	.	-ti-	8e-\	.	-ti-	8f\	.	-ti-	8cc\	.	-ti-	.	8f\J	.	8cc\J	.	8e-/J	.	8cc\J	.
16FF/JJ	.	.	.	.	.	.	.	.	.	.	.	.	.	.	.	.	.	.	.	.	.	.	.	.	.	.	.	.	.
!	!	!	!	!	!	!	!	!	!	!	!	!	!	!	!	!	!	!LO:LB:g=original	!	!	!	!	!	!	!	!	!	!	!
!	!	!	!LO:LB:g=original	!	!	!	!	!	!	!	!	!	!	!	!	!	!	!	!	!	!	!	!	!	!	!	!	!	!
=47	=47	=47	=47	=47	=47	=47	=47	=47	=47	=47	=47	=47	=47	=47	=47	=47	=47	=47	=47	=47	=47	=47	=47	=47	=47	=47	=47	=47	=47
8BB-/	9	.	8B-/L	.	16d/LL	.	16b-`\LL	.	8BB-/	-i	-o.	8d\	-i	-o.	8f\	-i	-o.	8b-\	-i	-o!	.	8B-/L	.	8b-\L	.	8d/	.	8b-\	.
.	.	.	.	.	(16f/	.	(16gg\	.	.	.	.	.	.	.	.	.	.	.	.	.	.	.	.	.	.	.	.	.	.
8r	.	.	8F/	.	16e-/	.	16ff\)	.	8r	.	.	8r	.	.	8r	.	.	8r	.	.	.	8F/	.	8cc\	.	8r	.	8r	.
.	.	.	.	.	16f/JJ)	.	16a`\JJ	.	.	.	.	.	.	.	.	.	.	.	.	.	.	.	.	.	.	.	.	.	.
4r	.	.	8B-/	.	16d`/LL	.	16b-`\LL	.	4r	.	.	4r	.	.	4r	.	.	4r	.	.	.	8B-/	.	8b-\	.	4r	.	4r	.
.	.	.	.	.	(16f/	.	(16gg\	.	.	.	.	.	.	.	.	.	.	.	.	.	.	.	.	.	.	.	.	.	.
.	.	.	8F/J	.	16e-/	.	16ff\)	.	.	.	.	.	.	.	.	.	.	.	.	.	.	8F/J	.	8cc\J	.	.	.	.	.
.	.	.	.	.	16f/JJ)	.	16a`\JJ	.	.	.	.	.	.	.	.	.	.	.	.	.	.	.	.	.	.	.	.	.	.
=48	=48	=48	=48	=48	=48	=48	=48	=48	=48	=48	=48	=48	=48	=48	=48	=48	=48	=48	=48	=48	=48	=48	=48	=48	=48	=48	=48	=48	=48
!	!	!	!	!	!	!	!	!	!	!	!	!LO:TX:b:t=il Fine	!	!	!LO:TX:b:t=il Fine	!	!	!	!	!	!	!	!	!	!	!	!	!	!
!LO:TX:t=P:problem:mixed beam	!	!	!	!	!	!	!	!	!LO:TX:a:t=1	!	!	!LO:TX:a:t=1	!	!	!LO:TX:a:t=1	!	!	!LO:TX:b:t=il Fine	!	!	!	!LO:TX:t=P:problem:mixed beam	!	!	!	!	!	!	!
8BB-\L	3	.	8B-\L	.	8d/L	.	8b-\L	.	2r	.	.	2r	.	.	2r	.	.	2r	.	.	.	8B-/L	.	8b-\L	.	8d/L	.	8b-\L	.
8B-/	.	.	8f\	.	8dd`\	.	8bb-`\	.	.	.	.	.	.	.	.	.	.	.	.	.	.	8b-\	.	8dd\	.	8dd\	.	8bb-\	.
8BB-\J	.	.	8f\J	.	8dd\J	.	8bb-`\J	.	.	.	.	.	.	.	.	.	.	.	.	.	.	8b-\J	.	8dd\J	.	8dd\J	.	8bb-\J	.
!LO:TX:b:t=il Fine	!	!	!LO:TX:b:t=il Fine.	!	!LO:TX:b:t=il Fine	!	!LO:TX:b:t=il Fine	!	!	!	!	!	!	!	!	!	!	!	!	!	!	!LO:TX:b:t=il Fine	!	!LO:TX:b:t=il Fine.	!	!LO:TX:b:t=il Fine	!	!LO:TX:b:t=il Fine	!
8r	.	.	8r	.	8r	.	8r	.	.	.	.	.	.	.	.	.	.	.	.	.	.	8r	.	8r	.	8r	.	8r	.
==	==	==	==	==	==	==	==	==	==	==	==	==	==	==	==	==	==	==	==	==	==	==	==	==	==	==	==	==	==
*-	*-	*-	*-	*-	*-	*-	*-	*-	*-	*-	*-	*-	*-	*-	*-	*-	*-	*-	*-	*-	*-	*-	*-	*-	*-	*-	*-	*-	*-
!!!system-decoration: [(s1,s2)][(s3,s4)][(s5,s6,s7,s8)][(s9,s10,s11)]s12
!!!RDF**kern: > = above
!!!RDF**kern: < = below
!!!ENC: Tomasz Grochalski
!!!END: 2020-10-30
!!!ENC: Jan Barakat
!!!END: 2022-04-22
